(1002)
(HOLES)
(T1  D=0.792 CR=0. - ZMIN=-0.45 - FLAT END MILL)
G0 G90 G94 G17
G21
G53 Z0.

(2D ADAPTIVE7)
M5
M9
T1
S12000 M3
G4 P4.
G55
M9
G0 X20.199 Y19.681
Z10.
Z5.
Z1.129
G1 Z1.05 F200.
G3 X19.801 Y20.319 Z1.009 I-0.199 J0.319
X20.199 Y19.681 Z0.967 I0.199 J-0.319
X19.801 Y20.319 Z0.926 I-0.199 J0.319
X20.199 Y19.681 Z0.885 I0.199 J-0.319
X19.801 Y20.319 Z0.844 I-0.199 J0.319
X20.199 Y19.681 Z0.802 I0.199 J-0.319
X19.801 Y20.319 Z0.761 I-0.199 J0.319
X20.199 Y19.681 Z0.72 I0.199 J-0.319
X19.801 Y20.319 Z0.678 I-0.199 J0.319
X20.199 Y19.681 Z0.637 I0.199 J-0.319
X19.801 Y20.319 Z0.596 I-0.199 J0.319
X20.199 Y19.681 Z0.554 I0.199 J-0.319
X19.801 Y20.319 Z0.513 I-0.199 J0.319
X20.199 Y19.681 Z0.472 I0.199 J-0.319
X19.801 Y20.319 Z0.431 I-0.199 J0.319
X20.199 Y19.681 Z0.389 I0.199 J-0.319
X19.801 Y20.319 Z0.348 I-0.199 J0.319
X20.199 Y19.681 Z0.307 I0.199 J-0.319
X19.801 Y20.319 Z0.265 I-0.199 J0.319
X20.199 Y19.681 Z0.224 I0.199 J-0.319
X19.801 Y20.319 Z0.183 I-0.199 J0.319
X20.199 Y19.681 Z0.141 I0.199 J-0.319
X19.801 Y20.319 Z0.1 I-0.199 J0.319
X20.199 Y19.681 Z0.059 I0.199 J-0.319
X19.801 Y20.319 Z0.018 I-0.199 J0.319
X20.199 Y19.681 Z-0.024 I0.199 J-0.319
X19.801 Y20.319 Z-0.065 I-0.199 J0.319
X20.199 Y19.681 Z-0.106 I0.199 J-0.319
X19.801 Y20.319 Z-0.148 I-0.199 J0.319
X20.199 Y19.681 Z-0.189 I0.199 J-0.319
X19.801 Y20.319 Z-0.23 I-0.199 J0.319
X20.199 Y19.681 Z-0.271 I0.199 J-0.319
X19.801 Y20.319 Z-0.313 I-0.199 J0.319
X20.199 Y19.681 Z-0.354 I0.199 J-0.319
X19.801 Y20.319 Z-0.395 I-0.199 J0.319
X20.199 Y19.681 Z-0.437 I0.199 J-0.319
X20.376 Y20. Z-0.45 I-0.199 J0.319
X19.624 I-0.376 J0.
X20.376 I0.376 J0.
G1 X20.382 Y20.033
X20.386 Y20.088
X20.382 Y20.143
X20.369 Y20.197
X20.364 Y20.213
X20.357 Y20.231
X20.349 Y20.249
X20.329 Y20.27
G3 X20.262 Y20.176 I-0.033 J-0.047
X20.348 Y20.198 I0.033 J0.047
X20.349 Y20.249 I-0.055 J0.026
G1 X20.334 Y20.266
X20.21 Y20.357
X20.178 Y20.38
X20.163 Y20.391
X20.129 Y20.407
G3 X20.077 Y20.258 I-0.022 J-0.076
G1 X20.083 Y20.256
G3 X20.163 Y20.391 I0.031 J0.073
G1 X20.135 Y20.406
X20.121 Y20.41
X20.107 Y20.412
X19.996
X19.964
X19.896 Y20.402
X19.833 Y20.38
X19.775 Y20.346
G3 X19.85 Y20.209 I0.049 J-0.062
G1 X19.988 Y20.258
G3 X19.964 Y20.412 I-0.027 J0.075
G1 X19.893
X19.879 Y20.41
X19.865 Y20.406
X19.837 Y20.391
X19.751 Y20.329
X19.739 Y20.32
X19.707 Y20.296
X19.659 Y20.258
G3 X19.768 Y20.145 I0.063 J-0.049
G1 X19.798 Y20.167
G3 X19.707 Y20.296 I-0.047 J0.064
G1 X19.666 Y20.266
X19.651 Y20.249
X19.643 Y20.231
X19.636 Y20.213
X19.601 Y20.107
X19.589 Y20.068
X19.571 Y20.003
X19.576 Y19.997
X19.594
G3 X19.619 Y20.062 I-0.072 J0.065
X19.589 Y20.068 I-0.016 J0.
G1 X19.573 Y20.018
X19.571 Y20.
X19.573 Y19.982
X19.617 Y19.844
X19.624 Y19.822
X19.652 Y19.751
G3 X19.787 Y19.823 I0.059 J0.053
G1 X19.777 Y19.863
G3 X19.68 Y19.921 I-0.077 J-0.019
X19.624 Y19.822 I0.02 J-0.077
G1 X19.636 Y19.787
X19.643 Y19.769
X19.651 Y19.751
X19.666 Y19.734
X19.79 Y19.643
X19.822 Y19.62
X19.855 Y19.599
X19.865 Y19.594
G3 X19.934 Y19.734 I0.022 J0.076
G1 X19.918 Y19.746
G3 X19.822 Y19.62 I-0.047 J-0.064
G1 X19.837 Y19.609
X19.865 Y19.594
X19.879 Y19.59
X19.893 Y19.588
X20.004
X20.036
X20.104 Y19.598
X20.167 Y19.62
X20.225 Y19.654
G3 X20.15 Y19.791 I-0.049 J0.062
G1 X20.012 Y19.742
G3 X20.036 Y19.588 I0.027 J-0.075
G1 X20.107
X20.121 Y19.59
X20.135 Y19.594
X20.163 Y19.609
X20.249 Y19.671
X20.261 Y19.68
X20.293 Y19.704
X20.341 Y19.742
G3 X20.232 Y19.855 I-0.063 J0.049
G1 X20.202 Y19.833
G3 X20.293 Y19.704 I0.047 J-0.064
G1 X20.334 Y19.734
X20.349 Y19.751
X20.357 Y19.769
X20.364 Y19.787
X20.399 Y19.893
X20.411 Y19.932
X20.429 Y19.997
X20.424 Y20.003
X20.406
G3 X20.381 Y19.938 I0.072 J-0.065
X20.411 Y19.932 I0.016 J0.
G1 X20.427 Y19.982
X20.429 Y20.
X20.427 Y20.018
X20.369 Y20.197
X20.361 Y20.21 Z-0.446
X20.355 Y20.22 Z-0.434
X20.353 Y20.224 Z-0.419
G0 Z5.
X29.766 Y19.681
Z1.129
G1 Z1.05 F200.
G3 X29.368 Y20.319 Z1.009 I-0.199 J0.319
X29.766 Y19.681 Z0.967 I0.199 J-0.319
X29.368 Y20.319 Z0.926 I-0.199 J0.319
X29.766 Y19.681 Z0.885 I0.199 J-0.319
X29.368 Y20.319 Z0.844 I-0.199 J0.319
X29.766 Y19.681 Z0.802 I0.199 J-0.319
X29.368 Y20.319 Z0.761 I-0.199 J0.319
X29.766 Y19.681 Z0.72 I0.199 J-0.319
X29.368 Y20.319 Z0.678 I-0.199 J0.319
X29.766 Y19.681 Z0.637 I0.199 J-0.319
X29.368 Y20.319 Z0.596 I-0.199 J0.319
X29.766 Y19.681 Z0.554 I0.199 J-0.319
X29.368 Y20.319 Z0.513 I-0.199 J0.319
X29.766 Y19.681 Z0.472 I0.199 J-0.319
X29.368 Y20.319 Z0.431 I-0.199 J0.319
X29.766 Y19.681 Z0.389 I0.199 J-0.319
X29.368 Y20.319 Z0.348 I-0.199 J0.319
X29.766 Y19.681 Z0.307 I0.199 J-0.319
X29.368 Y20.319 Z0.265 I-0.199 J0.319
X29.766 Y19.681 Z0.224 I0.199 J-0.319
X29.368 Y20.319 Z0.183 I-0.199 J0.319
X29.766 Y19.681 Z0.141 I0.199 J-0.319
X29.368 Y20.319 Z0.1 I-0.199 J0.319
X29.766 Y19.681 Z0.059 I0.199 J-0.319
X29.368 Y20.319 Z0.018 I-0.199 J0.319
X29.766 Y19.681 Z-0.024 I0.199 J-0.319
X29.368 Y20.319 Z-0.065 I-0.199 J0.319
X29.766 Y19.681 Z-0.106 I0.199 J-0.319
X29.368 Y20.319 Z-0.148 I-0.199 J0.319
X29.766 Y19.681 Z-0.189 I0.199 J-0.319
X29.368 Y20.319 Z-0.23 I-0.199 J0.319
X29.766 Y19.681 Z-0.271 I0.199 J-0.319
X29.368 Y20.319 Z-0.313 I-0.199 J0.319
X29.766 Y19.681 Z-0.354 I0.199 J-0.319
X29.368 Y20.319 Z-0.395 I-0.199 J0.319
X29.766 Y19.681 Z-0.437 I0.199 J-0.319
X29.943 Y20. Z-0.45 I-0.199 J0.319
X29.19 I-0.376 J0.
X29.943 I0.376 J0.
G1 X29.955 Y20.074
X29.953 Y20.149
X29.898 Y20.288
X29.781 Y20.382
X29.64 Y20.432
X29.49 Y20.431
X29.349 Y20.38
X29.233 Y20.284
X29.157 Y20.155
X29.129 Y20.008
X29.152 Y19.86
X29.223 Y19.728
X29.335 Y19.628
X29.474 Y19.572
X29.624 Y19.566
X29.767 Y19.61
X29.887 Y19.701
X29.969 Y19.826
X30.005 Y19.972
X30.018 Y20.122
X29.976 Y20.266
X29.881 Y20.381
X29.752 Y20.458
X29.707 Y20.469
X29.68 Y20.474
X29.652 Y20.478
X29.625 Y20.479
X29.567
X29.417 Y20.471
X29.282 Y20.405
X29.172 Y20.303
X29.098 Y20.173
X29.067 Y20.026
X29.083 Y19.877
X29.143 Y19.74
X29.242 Y19.627
X29.369 Y19.547
X29.422 Y19.533
X29.452 Y19.527
X29.482 Y19.523
X29.512 Y19.521
X29.542
X29.692 Y19.529
X29.832 Y19.582
X29.947 Y19.679
X30.027 Y19.806
X30.042 Y19.864
X30.049 Y19.893
X30.052 Y19.923
X30.054 Y19.953
G3 X29.925 Y20.011 I-0.079 J-0.003
G1 X29.495 Y19.662
G3 X29.542 Y19.521 I0.05 J-0.061
G1 X29.709
X29.748
X29.78
X29.818 Y19.523
X29.947 Y19.598
X29.973 Y19.629
X30.017 Y19.696
X30.044 Y19.772
X30.054 Y19.852
G3 X29.912 Y19.898 I-0.079 J-0.003
G1 X29.72 Y19.649
G3 X29.78 Y19.521 I0.063 J-0.048
G1 X29.819
X29.851
X29.89
X29.938 Y19.524
X29.948 Y19.533
X30.005 Y19.606
X30.041 Y19.691
X30.054 Y19.784
G3 X29.902 Y19.814 I-0.079 J-0.003
G1 X29.821 Y19.633
G3 X29.89 Y19.521 I0.072 J-0.033
G1 X29.958
X29.976 Y19.523
X29.994 Y19.528
X30.009 Y19.538
X30.031 Y19.555
X30.044 Y19.573
X30.051 Y19.591
X30.054 Y19.609
Y20.075
Y20.107
Y20.146
X30.05 Y20.221
X29.982 Y20.355
X29.951 Y20.384
X29.88 Y20.435
X29.799 Y20.468
X29.712 Y20.479
G3 X29.66 Y20.343 I0.003 J-0.079
G1 X29.92 Y20.092
G3 X30.054 Y20.146 I0.055 J0.057
G1 Y20.249
Y20.288
Y20.32
X30.051 Y20.367
X30.032 Y20.386
X29.961 Y20.436
X29.88 Y20.468
X29.794 Y20.479
G3 X29.766 Y20.327 I0.003 J-0.079
G1 X29.943 Y20.25
G3 X30.054 Y20.32 I0.031 J0.073
G1 Y20.391
X30.051 Y20.409
X30.044 Y20.427
X30.031 Y20.445
X30.009 Y20.462
X29.994 Y20.472
X29.976 Y20.477
X29.958 Y20.479
X29.625
X29.598
X29.567
X29.385
X29.31 Y20.475
X29.183 Y20.397
X29.088 Y20.28
X29.029 Y20.143
X29.009 Y19.994
X29.029 Y19.845
X29.09 Y19.708
X29.186 Y19.593
X29.199 Y19.584
X29.261 Y19.549
X29.328 Y19.528
X29.398 Y19.521
X29.512
G3 X29.588 Y19.613 I-0.003 J0.079
G1 X29.461 Y20.412
G3 X29.385 Y20.479 I-0.078 J-0.012
G1 X29.314
X29.239 Y20.475
X29.105 Y20.408
X29.022 Y20.283
X28.967 Y20.144
X28.947 Y19.995
X28.964 Y19.846
X29.019 Y19.706
X29.048 Y19.666
X29.126 Y19.588
X29.223 Y19.538
X29.331 Y19.521
X29.398
G3 X29.474 Y19.609 I-0.003 J0.079
G1 X29.39 Y20.408
G3 X29.314 Y20.479 I-0.079 J-0.008
G1 X29.211
X29.174 Y20.477
X29.102 Y20.454
X28.993 Y20.351
X28.926 Y20.217
X28.892 Y20.071
Y19.921
X28.925 Y19.775
X28.991 Y19.64
X29.007 Y19.624
X29.079 Y19.568
X29.164 Y19.533
X29.254 Y19.521
X29.331
G3 X29.407 Y19.612 I-0.003 J0.079
G1 X29.287 Y20.411
G3 X29.211 Y20.479 I-0.078 J-0.012
G1 X29.14
X29.103 Y20.477
X29.035 Y20.445
X28.918 Y20.351
X28.861 Y20.212
X28.83 Y20.065
Y19.915
X28.861 Y19.768
X28.922 Y19.631
X28.934 Y19.62
X29.005 Y19.566
X29.088 Y19.533
X29.177 Y19.521
X29.254
G3 X29.33 Y19.612 I-0.003 J0.079
G1 X29.216 Y20.411
G3 X29.14 Y20.479 I-0.078 J-0.011
G1 X29.069
X29.031 Y20.477
X28.964 Y20.444
X28.904 Y20.399
X28.82 Y20.275
X28.778 Y20.131
X28.765 Y19.981
X28.782 Y19.832
X28.826 Y19.689
X28.906 Y19.598
X29.009 Y19.541
X29.125 Y19.521
X29.177
G3 X29.253 Y19.611 I-0.003 J0.079
G1 X29.145 Y20.41
G3 X29.069 Y20.479 I-0.079 J-0.011
G1 X28.998
X28.96 Y20.477
X28.893 Y20.444
X28.788 Y20.337
X28.731 Y20.198
X28.706 Y20.05
X28.709 Y19.9
X28.739 Y19.753
X28.806 Y19.619
X28.82 Y19.606
X28.889 Y19.56
X28.966 Y19.531
X29.049 Y19.521
X29.125
G3 X29.201 Y19.613 I-0.003 J0.079
G1 X29.073 Y20.412
G3 X28.998 Y20.479 I-0.078 J-0.012
G1 X28.927
X28.889 Y20.477
X28.761 Y20.398
X28.69 Y20.266
X28.652 Y20.121
X28.643 Y19.971
X28.659 Y19.822
X28.679 Y19.762
X28.751 Y19.637
X28.869 Y19.551
X29.011 Y19.521
X29.049
G3 X29.124 Y19.612 I-0.003 J0.079
G1 X29.002 Y20.412
G3 X28.927 Y20.479 I-0.078 J-0.012
G1 X28.887
X28.813 Y20.475
X28.747 Y20.439
X28.651 Y20.324
X28.601 Y20.182
X28.581 Y20.034
X28.587 Y19.884
X28.622 Y19.738
X28.696 Y19.607
X28.705 Y19.6
X28.772 Y19.557
X28.847 Y19.53
X28.926 Y19.521
X29.011
G3 X29.087 Y19.613 I-0.003 J0.079
G1 X28.963 Y20.412
G3 X28.887 Y20.479 I-0.078 J-0.012
G1 X28.784
X28.747 Y20.477
X28.625 Y20.389
X28.559 Y20.255
X28.526 Y20.108
X28.519 Y19.958
X28.539 Y19.81
X28.56 Y19.752
X28.634 Y19.631
X28.75 Y19.55
X28.889 Y19.521
X28.926
G3 X29.001 Y19.614 I-0.003 J0.079
G1 X28.86 Y20.413
G3 X28.784 Y20.479 I-0.078 J-0.014
G1 X28.745
X28.708 Y20.477
X28.638 Y20.45
X28.532 Y20.343
X28.482 Y20.202
X28.459 Y20.054
X28.462 Y19.904
X28.492 Y19.757
X28.562 Y19.624
X28.58 Y19.608
X28.649 Y19.561
X28.727 Y19.531
X28.811 Y19.521
X28.889
G3 X28.964 Y19.614 I-0.003 J0.079
G1 X28.82 Y20.414
G3 X28.745 Y20.479 I-0.078 J-0.014
G1 X28.674
X28.637 Y20.477
X28.571 Y20.441
X28.515 Y20.391
X28.438 Y20.262
X28.403 Y20.116
X28.395 Y19.966
X28.413 Y19.818
X28.463 Y19.676
X28.467 Y19.671
X28.545 Y19.591
X28.644 Y19.539
X28.754 Y19.521
X28.811
G3 X28.886 Y19.614 I-0.003 J0.079
G1 X28.749 Y20.413
G3 X28.674 Y20.479 I-0.078 J-0.013
G1 X28.603
X28.566 Y20.477
X28.502 Y20.437
X28.403 Y20.324
X28.353 Y20.183
X28.334 Y20.034
X28.34 Y19.884
X28.374 Y19.738
X28.444 Y19.606
X28.455 Y19.597
X28.521 Y19.556
X28.594 Y19.53
X28.672 Y19.521
X28.754
G3 X28.829 Y19.615 I-0.003 J0.079
G1 X28.678 Y20.414
G3 X28.603 Y20.479 I-0.078 J-0.015
G1 X28.532
X28.494 Y20.477
X28.375 Y20.386
X28.31 Y20.251
X28.278 Y20.104
X28.272 Y19.955
X28.292 Y19.806
X28.31 Y19.754
X28.384 Y19.632
X28.5 Y19.55
X28.64 Y19.521
X28.672
G3 X28.747 Y19.614 I-0.003 J0.079
G1 X28.607 Y20.413
G3 X28.532 Y20.479 I-0.078 J-0.014
G1 X28.461
X28.423 Y20.477
X28.362 Y20.434
X28.272 Y20.314
X28.226 Y20.171
X28.209 Y20.022
X28.217 Y19.872
X28.255 Y19.727
X28.332 Y19.598
X28.337 Y19.594
X28.402 Y19.554
X28.475 Y19.53
X28.551 Y19.521
X28.64
G3 X28.714 Y19.618 I-0.003 J0.079
G1 X28.535 Y20.417
G3 X28.461 Y20.479 I-0.077 J-0.017
G1 X28.39
X28.352 Y20.477
X28.241 Y20.376
X28.181 Y20.239
X28.152 Y20.092
X28.148 Y19.942
X28.171 Y19.793
X28.191 Y19.743
X28.266 Y19.627
X28.381 Y19.549
X28.516 Y19.521
X28.551
G3 X28.626 Y19.616 I-0.003 J0.079
G1 X28.464 Y20.415
G3 X28.39 Y20.479 I-0.078 J-0.016
G1 X28.318
X28.281 Y20.477
X28.169 Y20.377
X28.117 Y20.236
X28.089 Y20.089
X28.086 Y19.939
X28.107 Y19.791
X28.172 Y19.655
X28.195 Y19.631
X28.269 Y19.572
X28.356 Y19.534
X28.45 Y19.521
X28.516
G3 X28.591 Y19.62 I-0.003 J0.079
G1 X28.393 Y20.419
G3 X28.318 Y20.479 I-0.077 J-0.019
G1 X28.247
X28.21 Y20.477
X28.153 Y20.428
X28.075 Y20.3
X28.035 Y20.155
X28.022 Y20.006
X28.032 Y19.856
X28.075 Y19.713
X28.154 Y19.585
X28.22 Y19.549
X28.286 Y19.528
X28.356 Y19.521
X28.45
G3 X28.524 Y19.62 I-0.003 J0.079
G1 X28.321 Y20.419
G3 X28.247 Y20.479 I-0.077 J-0.019
G1 X28.176
X28.139 Y20.477
X28.041 Y20.363
X27.987 Y20.223
X27.963 Y20.075
X27.962 Y19.925
X27.989 Y19.778
X28.007 Y19.735
X28.083 Y19.623
X28.196 Y19.548
X28.329 Y19.521
X28.356
G3 X28.43 Y19.618 I-0.003 J0.079
G1 X28.251 Y20.417
G3 X28.176 Y20.479 I-0.077 J-0.017
G1 X28.105
X28.068 Y20.477
X27.972 Y20.361
X27.924 Y20.219
X27.9 Y20.071
Y19.921
X27.925 Y19.773
X27.994 Y19.64
X28.015 Y19.62
X28.087 Y19.566
X28.17 Y19.533
X28.259 Y19.521
X28.329
G3 X28.403 Y19.622 I-0.003 J0.079
G1 X28.179 Y20.421
G3 X28.105 Y20.479 I-0.076 J-0.021
G1 X28.034
X27.996 Y20.477
X27.904 Y20.358
X27.86 Y20.215
X27.837 Y20.067
Y19.917
X27.861 Y19.769
X27.924 Y19.633
X27.938 Y19.619
X28.01 Y19.566
X28.093 Y19.533
X28.181 Y19.521
X28.259
G3 X28.332 Y19.622 I-0.003 J0.079
G1 X28.107 Y20.421
G3 X28.034 Y20.479 I-0.076 J-0.021
G1 X27.963
X27.925 Y20.477
X27.838 Y20.355
X27.795 Y20.211
X27.775 Y20.063
Y19.913
X27.797 Y19.764
X27.855 Y19.626
X27.863 Y19.618
X27.935 Y19.566
X28.017 Y19.532
X28.105 Y19.521
X28.181
G3 X28.255 Y19.621 I-0.003 J0.079
G1 X28.036 Y20.42
G3 X27.963 Y20.479 I-0.076 J-0.021
G1 X27.892
X27.854 Y20.477
X27.771 Y20.352
X27.731 Y20.207
X27.712 Y20.059
Y19.909
X27.733 Y19.76
X27.787 Y19.62
X27.791 Y19.616
X27.862 Y19.565
X27.943 Y19.532
X28.03 Y19.521
X28.105
G3 X28.179 Y19.621 I-0.003 J0.079
G1 X27.965 Y20.42
G3 X27.892 Y20.479 I-0.077 J-0.02
G1 X27.821
X27.783 Y20.477
X27.706 Y20.348
X27.667 Y20.203
X27.649 Y20.054
Y19.904
X27.67 Y19.755
X27.744 Y19.633
X27.86 Y19.55
X28. Y19.521
X28.03
G3 X28.104 Y19.621 I-0.003 J0.079
G1 X27.894 Y20.42
G3 X27.821 Y20.479 I-0.077 J-0.02
G1 X27.749
X27.712 Y20.477
X27.642 Y20.344
X27.603 Y20.199
X27.585 Y20.05
X27.586 Y19.9
X27.606 Y19.752
X27.676 Y19.619
X27.691 Y19.606
X27.76 Y19.56
X27.837 Y19.531
X27.92 Y19.521
X28.
G3 X28.073 Y19.624 I-0.003 J0.079
G1 X27.822 Y20.423
G3 X27.749 Y20.479 I-0.076 J-0.024
G1 X27.678
X27.641 Y20.477
X27.577 Y20.341
X27.539 Y20.196
X27.522 Y20.047
X27.523 Y19.897
X27.542 Y19.748
X27.606 Y19.612
X27.609 Y19.609
X27.679 Y19.561
X27.757 Y19.531
X27.841 Y19.521
X27.92
G3 X27.993 Y19.623 I-0.003 J0.079
G1 X27.751 Y20.422
G3 X27.678 Y20.479 I-0.076 J-0.023
G1 X27.607
X27.57 Y20.477
X27.512 Y20.339
X27.476 Y20.193
X27.459 Y20.044
Y19.894
X27.478 Y19.745
X27.482 Y19.736
X27.558 Y19.623
X27.671 Y19.548
X27.805 Y19.521
X27.841
G3 X27.914 Y19.623 I-0.003 J0.079
G1 X27.68 Y20.422
G3 X27.607 Y20.479 I-0.076 J-0.022
G1 X27.536
X27.499 Y20.477
X27.446 Y20.337
X27.411 Y20.191
X27.395 Y20.041
X27.396 Y19.891
X27.414 Y19.743
X27.488 Y19.612
X27.5 Y19.602
X27.567 Y19.558
X27.643 Y19.53
X27.723 Y19.521
X27.805
G3 X27.877 Y19.626 I-0.003 J0.079
G1 X27.608 Y20.425
G3 X27.536 Y20.479 I-0.075 J-0.025
G1 X27.465
X27.427 Y20.477
X27.379 Y20.335
X27.347 Y20.188
X27.331 Y20.039
X27.332 Y19.889
X27.35 Y19.74
X27.416 Y19.605
X27.485 Y19.559
X27.562 Y19.531
X27.644 Y19.521
X27.723
G3 X27.796 Y19.625 I-0.003 J0.079
G1 X27.538 Y20.424
G3 X27.465 Y20.479 I-0.075 J-0.024
G1 X27.394
X27.356 Y20.477
X27.312 Y20.333
X27.282 Y20.187
X27.267 Y20.037
X27.268 Y19.887
X27.286 Y19.738
X27.289 Y19.732
X27.365 Y19.621
X27.478 Y19.547
X27.61 Y19.521
X27.644
G3 X27.717 Y19.624 I-0.003 J0.079
G1 X27.467 Y20.423
G3 X27.394 Y20.479 I-0.076 J-0.024
G1 X27.323
X27.285 Y20.477
X27.245 Y20.332
X27.217 Y20.185
X27.203 Y20.036
X27.204 Y19.886
X27.222 Y19.737
X27.297 Y19.607
X27.306 Y19.599
X27.373 Y19.556
X27.448 Y19.53
X27.526 Y19.521
X27.61
G3 X27.681 Y19.627 I-0.003 J0.079
G1 X27.394 Y20.426
G3 X27.323 Y20.479 I-0.075 J-0.027
G1 X27.252
X27.214 Y20.477
X27.178 Y20.331
X27.152 Y20.184
X27.139 Y20.034
X27.14 Y19.884
X27.158 Y19.735
X27.168 Y19.715
X27.245 Y19.612
X27.354 Y19.545
X27.481 Y19.521
X27.526
G3 X27.598 Y19.626 I-0.003 J0.079
G1 X27.324 Y20.425
G3 X27.252 Y20.479 I-0.075 J-0.026
G1 X27.18
X27.143 Y20.477
X27.11 Y20.331
X27.086 Y20.183
X27.074 Y20.033
X27.076 Y19.883
X27.093 Y19.734
X27.17 Y19.605
X27.18 Y19.598
X27.246 Y19.556
X27.32 Y19.53
X27.398 Y19.521
X27.481
G3 X27.552 Y19.628 I-0.003 J0.079
G1 X27.252 Y20.427
G3 X27.18 Y20.479 I-0.074 J-0.028
G1 X27.109
X27.072 Y20.477
X27.042 Y20.33
X27.02 Y20.182
X27.009 Y20.032
X27.012 Y19.882
X27.029 Y19.733
X27.041 Y19.711
X27.118 Y19.61
X27.226 Y19.544
X27.351 Y19.521
X27.398
G3 X27.47 Y19.627 I-0.003 J0.079
G1 X27.181 Y20.427
G3 X27.109 Y20.479 I-0.075 J-0.027
G1 X27.038
X27.001 Y20.477
X26.973 Y20.329
X26.954 Y20.181
X26.944 Y20.031
X26.947 Y19.881
X26.965 Y19.732
X27.043 Y19.604
X27.051 Y19.597
X27.117 Y19.556
X27.191 Y19.53
X27.269 Y19.521
X27.351
G3 X27.422 Y19.629 I-0.003 J0.079
G1 X27.109 Y20.428
G3 X27.038 Y20.479 I-0.074 J-0.029
G1 X26.967
X26.93 Y20.477
X26.905 Y20.329
X26.887 Y20.18
X26.879 Y20.03
X26.882 Y19.88
X26.9 Y19.731
X26.912 Y19.709
X26.989 Y19.609
X27.097 Y19.544
X27.222 Y19.521
X27.269
G3 X27.34 Y19.628 I-0.003 J0.079
G1 X27.038 Y20.428
G3 X26.967 Y20.479 I-0.074 J-0.028
G1 X26.896
X26.858 Y20.477
X26.836 Y20.329
X26.82 Y20.179
X26.813 Y20.03
X26.817 Y19.88
X26.835 Y19.731
X26.914 Y19.603
X26.922 Y19.596
X26.988 Y19.555
X27.061 Y19.53
X27.139 Y19.521
G3 X27.212 Y19.623 I-0.003 J0.079
G1 X26.969 Y20.423
G3 X26.896 Y20.479 I-0.076 J-0.023
G1 X26.825
X26.787 Y20.477
X26.768 Y20.328
X26.753 Y20.179
X26.748 Y20.029
X26.752 Y19.879
X26.771 Y19.73
X26.782 Y19.708
X26.86 Y19.609
X26.968 Y19.544
X27.092 Y19.521
G3 X27.164 Y19.626 I-0.003 J0.079
G1 X26.897 Y20.425
G3 X26.825 Y20.479 I-0.075 J-0.025
G1 X26.754
X26.716 Y20.477
X26.699 Y20.328
X26.686 Y20.178
X26.682 Y20.028
X26.687 Y19.879
X26.706 Y19.73
X26.785 Y19.602
X26.793 Y19.596
X26.858 Y19.555
X26.932 Y19.53
X27.008 Y19.521
G3 X27.081 Y19.625 I-0.003 J0.079
G1 X26.826 Y20.424
G3 X26.754 Y20.479 I-0.076 J-0.024
G1 X26.682
X26.645 Y20.477
X26.63 Y20.324
X26.619 Y20.175
X26.616 Y20.025
X26.622 Y19.875
X26.642 Y19.726
X26.653 Y19.706
X26.731 Y19.608
X26.838 Y19.544
X26.961 Y19.521
G3 X27.033 Y19.627 I-0.003 J0.079
G1 X26.755 Y20.426
G3 X26.682 Y20.479 I-0.075 J-0.026
G1 X26.611
X26.574 Y20.477
X26.56 Y20.315
X26.551 Y20.165
X26.549 Y20.015
X26.558 Y19.866
X26.58 Y19.717
X26.662 Y19.592
X26.728 Y19.552
X26.799 Y19.529
X26.872 Y19.521
G3 X26.945 Y19.625 I-0.003 J0.079
G1 X26.684 Y20.424
G3 X26.611 Y20.479 I-0.075 J-0.025
G1 X26.54
X26.503 Y20.477
X26.49 Y20.308
X26.483 Y20.158
Y20.008
X26.493 Y19.858
X26.517 Y19.71
X26.524 Y19.697
X26.602 Y19.603
X26.708 Y19.542
X26.828 Y19.521
G3 X26.899 Y19.627 I-0.003 J0.079
G1 X26.612 Y20.426
G3 X26.54 Y20.479 I-0.075 J-0.027
G1 X26.469
X26.432 Y20.477
X26.421 Y20.302
X26.416 Y20.152
X26.417 Y20.002
X26.428 Y19.852
X26.453 Y19.704
X26.475 Y19.673
X26.553 Y19.592
X26.652 Y19.539
X26.763 Y19.521
G3 X26.835 Y19.628 I-0.003 J0.079
G1 X26.541 Y20.427
G3 X26.469 Y20.479 I-0.074 J-0.027
G1 X26.398
X26.361 Y20.477
X26.351 Y20.297
X26.348 Y20.147
X26.351 Y19.997
X26.363 Y19.848
X26.389 Y19.7
X26.415 Y19.664
X26.492 Y19.587
X26.589 Y19.538
X26.697 Y19.521
G3 X26.769 Y19.628 I-0.003 J0.079
G1 X26.469 Y20.427
G3 X26.398 Y20.479 I-0.074 J-0.028
G1 X26.327
X26.289 Y20.477
X26.282 Y20.293
X26.28 Y20.143
X26.285 Y19.993
X26.298 Y19.844
X26.324 Y19.696
X26.351 Y19.661
X26.428 Y19.586
X26.524 Y19.538
X26.63 Y19.521
G3 X26.702 Y19.629 I-0.003 J0.079
G1 X26.398 Y20.428
G3 X26.327 Y20.479 I-0.074 J-0.028
G1 X26.256
X26.218 Y20.477
X26.212 Y20.29
Y20.14
X26.218 Y19.99
X26.233 Y19.841
X26.259 Y19.693
X26.286 Y19.658
X26.363 Y19.585
X26.458 Y19.537
X26.564 Y19.521
G3 X26.635 Y19.629 I-0.003 J0.079
G1 X26.327 Y20.428
G3 X26.256 Y20.479 I-0.074 J-0.028
G1 X26.185
X26.147 Y20.477
X26.143 Y20.287
X26.144 Y20.137
X26.151 Y19.987
X26.167 Y19.838
X26.194 Y19.69
X26.22 Y19.657
X26.297 Y19.584
X26.392 Y19.537
X26.497 Y19.521
G3 X26.568 Y19.629 I-0.003 J0.079
G1 X26.256 Y20.428
G3 X26.185 Y20.479 I-0.074 J-0.029
G1 X26.113
X26.076 Y20.477
X26.074 Y20.284
X26.077 Y20.134
X26.085 Y19.984
X26.101 Y19.835
X26.129 Y19.688
X26.154 Y19.656
X26.231 Y19.583
X26.325 Y19.537
X26.43 Y19.521
G3 X26.5 Y19.63 I-0.003 J0.079
G1 X26.184 Y20.429
G3 X26.113 Y20.479 I-0.074 J-0.029
G1 X26.042
X26.005 Y20.477
X26.004 Y20.281
X26.008 Y20.131
X26.018 Y19.982
X26.035 Y19.833
X26.064 Y19.685
X26.088 Y19.655
X26.164 Y19.583
X26.259 Y19.537
X26.362 Y19.521
G3 X26.433 Y19.63 I-0.003 J0.079
G1 X26.113 Y20.429
G3 X26.042 Y20.479 I-0.074 J-0.029
G1 X25.971
X25.934 Y20.477
X25.935 Y20.279
X25.94 Y20.129
X25.951 Y19.98
X25.969 Y19.831
X25.998 Y19.684
X26.021 Y19.654
X26.098 Y19.582
X26.192 Y19.537
X26.295 Y19.521
G3 X26.366 Y19.63 I-0.003 J0.079
G1 X26.042 Y20.429
G3 X25.971 Y20.479 I-0.073 J-0.03
G1 X25.9
X25.863 Y20.477
X25.865 Y20.277
X25.872 Y20.127
X25.883 Y19.978
X25.902 Y19.829
X25.932 Y19.682
X25.955 Y19.653
X26.031 Y19.582
X26.125 Y19.537
X26.228 Y19.521
G3 X26.299 Y19.631 I-0.003 J0.079
G1 X25.971 Y20.43
G3 X25.9 Y20.479 I-0.073 J-0.03
G1 X25.829
X25.792 Y20.477
X25.796 Y20.276
X25.804 Y20.126
X25.816 Y19.976
X25.835 Y19.828
X25.866 Y19.681
X25.888 Y19.653
X25.965 Y19.582
X26.058 Y19.537
X26.161 Y19.521
G3 X26.232 Y19.631 I-0.003 J0.079
G1 X25.899 Y20.43
G3 X25.829 Y20.479 I-0.073 J-0.03
G1 X25.758
X25.72 Y20.477
X25.726 Y20.274
X25.735 Y20.122
X25.749 Y19.973
X25.769 Y19.824
X25.8 Y19.677
X25.822 Y19.65
X25.898 Y19.581
X25.992 Y19.536
X26.094 Y19.521
G3 X26.164 Y19.631 I-0.003 J0.079
G1 X25.828 Y20.43
G3 X25.758 Y20.479 I-0.073 J-0.031
G1 X25.687
X25.649 Y20.477
X25.657 Y20.273
X25.667 Y20.118
X25.681 Y19.969
X25.703 Y19.82
X25.735 Y19.674
X25.756 Y19.648
X25.832 Y19.58
X25.924 Y19.536
X26.025 Y19.521
G3 X26.096 Y19.631 I-0.003 J0.079
G1 X25.757 Y20.43
G3 X25.687 Y20.479 I-0.073 J-0.031
G1 X25.616
X25.578 Y20.477
X25.587 Y20.272
X25.598 Y20.115
X25.614 Y19.966
X25.636 Y19.817
X25.669 Y19.671
X25.689 Y19.647
X25.765 Y19.579
X25.857 Y19.536
X25.957 Y19.521
G3 X26.028 Y19.632 I-0.003 J0.079
G1 X25.686 Y20.431
G3 X25.616 Y20.479 I-0.073 J-0.031
G1 X25.544
X25.507 Y20.477
X25.517 Y20.271
X25.53 Y20.112
X25.546 Y19.963
X25.569 Y19.815
X25.603 Y19.669
X25.622 Y19.646
X25.697 Y19.579
X25.789 Y19.536
X25.889 Y19.521
G3 X25.959 Y19.632 I-0.003 J0.079
G1 X25.614 Y20.431
G3 X25.544 Y20.479 I-0.073 J-0.031
G1 X25.473
X25.436 Y20.477
X25.447 Y20.27
X25.461 Y20.11
X25.478 Y19.961
X25.502 Y19.813
X25.536 Y19.667
X25.554 Y19.645
X25.63 Y19.578
X25.722 Y19.536
X25.822 Y19.521
G3 X25.891 Y19.632 I-0.003 J0.079
G1 X25.543 Y20.431
G3 X25.473 Y20.479 I-0.073 J-0.032
G1 X25.402
X25.365 Y20.477
X25.377 Y20.27
X25.392 Y20.108
X25.41 Y19.959
X25.435 Y19.811
X25.47 Y19.665
X25.487 Y19.645
X25.562 Y19.578
X25.654 Y19.536
X25.754 Y19.521
G3 X25.823 Y19.632 I-0.003 J0.079
G1 X25.472 Y20.431
G3 X25.402 Y20.479 I-0.073 J-0.032
G1 X25.331
X25.294 Y20.477
X25.307 Y20.269
X25.323 Y20.106
X25.342 Y19.957
X25.368 Y19.81
X25.403 Y19.664
X25.419 Y19.644
X25.495 Y19.578
X25.586 Y19.536
X25.686 Y19.521
G3 X25.755 Y19.633 I-0.003 J0.079
G1 X25.401 Y20.432
G3 X25.331 Y20.479 I-0.072 J-0.032
G1 X25.26
X25.222 Y20.477
X25.237 Y20.269
X25.254 Y20.105
X25.274 Y19.956
X25.3 Y19.808
X25.336 Y19.662
X25.352 Y19.643
X25.427 Y19.577
X25.518 Y19.536
X25.617 Y19.521
G3 X25.687 Y19.633 I-0.003 J0.079
G1 X25.33 Y20.432
G3 X25.26 Y20.479 I-0.072 J-0.032
G1 X25.189
X25.151 Y20.477
X25.167 Y20.269
X25.185 Y20.103
X25.206 Y19.955
X25.232 Y19.807
X25.269 Y19.661
X25.284 Y19.643
X25.36 Y19.577
X25.451 Y19.536
X25.549 Y19.521
G3 X25.619 Y19.633 I-0.003 J0.079
G1 X25.258 Y20.432
G3 X25.189 Y20.479 I-0.072 J-0.033
G1 X25.118
X25.08 Y20.477
X25.097 Y20.269
X25.116 Y20.102
X25.137 Y19.953
X25.165 Y19.806
X25.201 Y19.66
X25.217 Y19.643
X25.292 Y19.577
X25.383 Y19.535
X25.481 Y19.521
G3 X25.551 Y19.633 I-0.003 J0.079
G1 X25.187 Y20.432
G3 X25.118 Y20.479 I-0.072 J-0.033
G1 X25.047
X25.009 Y20.477
X25.027 Y20.269
X25.047 Y20.101
X25.069 Y19.952
X25.097 Y19.805
X25.134 Y19.66
X25.149 Y19.642
X25.224 Y19.577
X25.315 Y19.535
X25.413 Y19.521
G3 X25.483 Y19.633 I-0.003 J0.079
G1 X25.116 Y20.433
G3 X25.047 Y20.479 I-0.072 J-0.033
G1 X24.975
X24.938 Y20.477
X24.957 Y20.269
X24.978 Y20.1
X25. Y19.952
X25.029 Y19.804
X25.066 Y19.659
X25.081 Y19.642
X25.156 Y19.577
X25.247 Y19.535
X25.345 Y19.521
G3 X25.414 Y19.634 I-0.003 J0.079
G1 X25.045 Y20.433
G3 X24.975 Y20.479 I-0.072 J-0.033
G1 X24.904
X24.867 Y20.477
X24.887 Y20.269
X24.908 Y20.099
X24.931 Y19.951
X24.96 Y19.804
X24.998 Y19.659
X25.013 Y19.642
X25.088 Y19.577
X25.179 Y19.535
X25.277 Y19.521
G3 X25.346 Y19.634 I-0.003 J0.079
G1 X24.973 Y20.433
G3 X24.904 Y20.479 I-0.072 J-0.033
G1 X24.833
X24.796 Y20.477
X24.817 Y20.269
X24.839 Y20.099
X24.863 Y19.951
X24.892 Y19.803
X24.93 Y19.658
X24.945 Y19.641
X25.02 Y19.577
X25.111 Y19.535
X25.209 Y19.521
G3 X25.278 Y19.634 I-0.003 J0.079
G1 X24.902 Y20.433
G3 X24.833 Y20.479 I-0.072 J-0.034
G1 X24.762
X24.725 Y20.477
X24.746 Y20.269
X24.769 Y20.098
X24.794 Y19.95
X24.824 Y19.803
X24.862 Y19.658
X24.877 Y19.641
X24.952 Y19.576
X25.042 Y19.535
X25.141 Y19.521
G3 X25.21 Y19.634 I-0.003 J0.079
G1 X24.831 Y20.433
G3 X24.762 Y20.479 I-0.072 J-0.034
G1 X24.691
X24.653 Y20.477
X24.676 Y20.269
X24.7 Y20.098
X24.725 Y19.95
X24.755 Y19.803
X24.794 Y19.658
X24.809 Y19.641
X24.884 Y19.576
X24.974 Y19.535
X25.072 Y19.521
G3 X25.141 Y19.635 I-0.003 J0.079
G1 X24.76 Y20.434
G3 X24.691 Y20.479 I-0.072 J-0.034
G1 X24.62
X24.582 Y20.477
X24.606 Y20.269
X24.63 Y20.098
X24.655 Y19.95
X24.686 Y19.803
X24.726 Y19.658
X24.741 Y19.641
X24.816 Y19.576
X24.906 Y19.535
X25.004 Y19.521
G3 X25.073 Y19.635 I-0.003 J0.079
G1 X24.688 Y20.434
G3 X24.62 Y20.479 I-0.071 J-0.034
G1 X24.549
X24.511 Y20.477
X24.535 Y20.269
X24.56 Y20.097
X24.586 Y19.95
X24.618 Y19.803
X24.657 Y19.658
X24.672 Y19.641
X24.747 Y19.576
X24.838 Y19.535
X24.936 Y19.521
G3 X25.004 Y19.635 I-0.003 J0.079
G1 X24.617 Y20.434
G3 X24.549 Y20.479 I-0.071 J-0.035
G1 X24.478
X24.44 Y20.477
X24.465 Y20.27
X24.49 Y20.097
X24.517 Y19.95
X24.549 Y19.803
X24.589 Y19.659
X24.604 Y19.641
X24.679 Y19.576
X24.769 Y19.535
X24.868 Y19.521
G3 X24.936 Y19.635 I-0.003 J0.079
G1 X24.546 Y20.434
G3 X24.478 Y20.479 I-0.071 J-0.035
G1 X24.406
X24.369 Y20.477
X24.394 Y20.27
X24.42 Y20.097
X24.448 Y19.95
X24.48 Y19.803
X24.52 Y19.659
X24.536 Y19.641
X24.611 Y19.576
X24.701 Y19.535
X24.799 Y19.521
G3 X24.868 Y19.635 I-0.003 J0.079
G1 X24.475 Y20.435
G3 X24.406 Y20.479 I-0.071 J-0.035
G1 X24.335
X24.298 Y20.477
X24.324 Y20.27
X24.351 Y20.098
X24.378 Y19.95
X24.411 Y19.804
X24.451 Y19.659
X24.467 Y19.641
X24.542 Y19.577
X24.633 Y19.535
X24.731 Y19.521
G3 X24.799 Y19.636 I-0.003 J0.079
G1 X24.404 Y20.435
G3 X24.335 Y20.479 I-0.071 J-0.035
G1 X24.264
X24.227 Y20.477
X24.253 Y20.271
X24.281 Y20.098
X24.309 Y19.95
X24.341 Y19.804
X24.383 Y19.66
X24.398 Y19.642
X24.474 Y19.577
X24.564 Y19.535
X24.662 Y19.521
G3 X24.731 Y19.636 I-0.003 J0.079
G1 X24.332 Y20.435
G3 X24.264 Y20.479 I-0.071 J-0.035
G1 X24.193
X24.156 Y20.477
X24.183 Y20.271
X24.21 Y20.098
X24.239 Y19.951
X24.272 Y19.805
X24.314 Y19.66
X24.33 Y19.642
X24.405 Y19.577
X24.495 Y19.535
X24.594 Y19.521
G3 X24.662 Y19.636 I-0.003 J0.079
G1 X24.261 Y20.435
G3 X24.193 Y20.479 I-0.071 J-0.036
G1 X24.122
X24.084 Y20.477
X24.112 Y20.271
X24.14 Y20.098
X24.169 Y19.951
X24.203 Y19.805
X24.245 Y19.661
X24.261 Y19.642
X24.336 Y19.577
X24.427 Y19.535
X24.525 Y19.521
G3 X24.593 Y19.636 I-0.003 J0.079
G1 X24.19 Y20.435
G3 X24.122 Y20.479 I-0.071 J-0.036
G1 X24.051
X24.014 Y20.477
X24.039 Y20.287
X24.067 Y20.118
X24.095 Y19.971
X24.128 Y19.825
X24.168 Y19.68
X24.186 Y19.657
X24.263 Y19.584
X24.358 Y19.537
X24.463 Y19.521
G3 X24.53 Y19.637 I-0.003 J0.079
G1 X24.118 Y20.436
G3 X24.051 Y20.479 I-0.07 J-0.036
G1 X23.98
X23.948 Y20.477
X23.965 Y20.328
X23.987 Y20.178
X24.014 Y20.031
X24.044 Y19.884
X24.081 Y19.738
X24.15 Y19.605
X24.163 Y19.595
X24.228 Y19.555
X24.301 Y19.53
X24.378 Y19.521
G3 X24.446 Y19.636 I-0.003 J0.079
G1 X24.048 Y20.435
G3 X23.98 Y20.479 I-0.071 J-0.035
G1 X23.948
X23.933
X23.919 Y20.476
X23.904 Y20.471
X23.89 Y20.462
X23.876 Y20.452
X23.862 Y20.437
X23.853 Y20.421
X23.848 Y20.406
X23.846 Y20.391
X23.854 Y20.241
X23.969 Y19.95
X23.997 Y19.803
X24.017 Y19.749
X24.091 Y19.63
X24.207 Y19.55
X24.345 Y19.521
G3 X24.412 Y19.638 I-0.003 J0.079
G1 X23.994 Y20.416
G3 X23.846 Y20.391 I-0.07 J-0.037
G1 Y20.21
X23.854 Y20.06
X23.905 Y19.884
X23.951 Y19.742
X24.026 Y19.612
X24.038 Y19.601
X24.106 Y19.558
X24.181 Y19.53
X24.261 Y19.521
G3 X24.328 Y19.639 I-0.003 J0.079
G1 X23.995 Y20.245
G3 X23.846 Y20.21 I-0.069 J-0.038
G1 Y19.996
Y19.964
Y19.925
X23.854 Y19.776
X23.927 Y19.645
X23.937 Y19.634
X24.011 Y19.573
X24.099 Y19.534
X24.194 Y19.521
G3 X24.252 Y19.651 I-0.003 J0.079
G1 X23.987 Y19.973
G3 X23.846 Y19.925 I-0.061 J-0.05
G1 Y19.783
Y19.751
Y19.712
X23.848 Y19.679
X23.854 Y19.669
X23.932 Y19.59
X24.031 Y19.539
X24.14 Y19.521
G3 X24.174 Y19.671 I-0.003 J0.079
G1 X23.962 Y19.78
G3 X23.846 Y19.712 I-0.036 J-0.071
G1 Y19.68
Y19.641
Y19.609
X23.851 Y19.585
X23.853 Y19.579
G3 X23.912 Y19.554 I0.047 J0.03
X23.889 Y19.66 I-0.012 J0.053
X23.846 Y19.609 I0.012 J-0.053
G1 X23.848 Y19.594
X23.853 Y19.579
X23.862 Y19.563
X23.876 Y19.548
X23.89 Y19.538
X23.909 Y19.527
G3 X23.944 Y19.636 I0.017 J0.054
X23.872 Y19.567 I-0.017 J-0.054
G1 X23.873 Y19.563
G3 X23.89 Y19.538 I0.055 J0.018
G1 X23.904 Y19.529
X23.919 Y19.524
X23.933 Y19.521
X26.01
X27.222
G3 X27.252 Y19.528 I-0.003 J0.079
G1 X27.279 Y19.541 Z-0.444
X27.303 Y19.552 Z-0.427
X27.318 Y19.559 Z-0.401
X27.324 Y19.561 Z-0.371
G0 Z10.

M9
G53 Z0.
M30
