(1003)
(ETCHING)
(T1  D=0.396 CR=0. - ZMIN=-0.1 - FLAT END MILL)
G0 G90 G94 G17
G21
G53 Z0.

(TRACE3)
M5
M9
T1
S12000 M3
G4 P4.
G55
M9
G0 X13.425 Y30.638
Z3.
Z0.9
G1 Z-0.1 F40.
X12.425 Y32.37
X13.075 Y32.745
X14.075 Y31.013
X13.425 Y30.638
Z0.9
G0 Z2.
X14.357 Y29.551
Z0.9
G1 Z-0.1 F40.
X14.464 Y30.13
X14.602
Y28.22
X14.431
Y29.545
X14.357
Z0.9
G0 Z2.
X14.865 Y29.551
Z0.9
G1 Z-0.1 F40.
X14.972 Y30.13
X15.11
Y28.22
X14.939
Y29.545
X14.865
Z0.9
G0 Z2.
X14.975 Y25.744
Z0.9
G1 Z-0.1 F40.
X15.028 Y25.745
X15.082 Y25.746
X15.136 Y25.745
X15.191
X15.552
X15.577 Y25.743
X15.601 Y25.74
X15.625 Y25.737
X15.637 Y25.735
X15.649 Y25.732
X15.661 Y25.729
X15.672 Y25.726
X15.684 Y25.723
X15.695 Y25.719
X15.706 Y25.715
X15.717 Y25.71
X15.728 Y25.704
X15.738 Y25.698
X15.748 Y25.692
X15.759 Y25.686
X15.769 Y25.679
X15.789 Y25.665
X15.819 Y25.644
X15.836 Y25.626
X15.853 Y25.608
X15.861 Y25.599
X15.869 Y25.59
X15.877 Y25.58
X15.884 Y25.571
X15.891 Y25.561
X15.897 Y25.551
X15.903 Y25.541
X15.908 Y25.531
X15.913 Y25.52
X15.918 Y25.509
X15.921 Y25.498
X15.925 Y25.486
X15.928 Y25.475
X15.93 Y25.463
X15.932 Y25.451
X15.934 Y25.439
X15.938 Y25.415
X15.941 Y25.39
X15.938 Y25.366
X15.935 Y25.343
X15.933 Y25.331
X15.931 Y25.32
X15.929 Y25.308
X15.926 Y25.297
X15.923 Y25.286
X15.919 Y25.275
X15.915 Y25.264
X15.911 Y25.254
X15.906 Y25.243
X15.9 Y25.234
X15.894 Y25.224
X15.887 Y25.214
X15.881 Y25.205
X15.873 Y25.196
X15.866 Y25.187
X15.858 Y25.178
X15.842 Y25.16
X15.826 Y25.143
X15.805 Y25.128
X15.784 Y25.113
X15.763 Y25.099
X15.753 Y25.092
X15.742 Y25.086
X15.731 Y25.08
X15.72 Y25.075
X15.709 Y25.07
X15.697 Y25.065
X15.686 Y25.061
X15.674 Y25.058
X15.662 Y25.055
X15.65 Y25.052
X15.638 Y25.05
X15.625 Y25.048
X15.6 Y25.045
X15.575 Y25.042
X15.55 Y25.04
X15.524 Y25.042
X15.499 Y25.045
X15.486 Y25.046
X15.474 Y25.048
X15.462 Y25.05
X15.449 Y25.052
X15.437 Y25.055
X15.425 Y25.058
X15.413 Y25.061
X15.402 Y25.065
X15.391 Y25.07
X15.379 Y25.075
X15.368 Y25.08
X15.358 Y25.086
X15.347 Y25.092
X15.336 Y25.099
X15.315 Y25.113
X15.295 Y25.128
X15.274 Y25.143
X15.25 Y25.169
X15.242 Y25.178
X15.227 Y25.196
X15.219 Y25.205
X15.213 Y25.215
X15.206 Y25.224
X15.2 Y25.234
X15.194 Y25.244
X15.189 Y25.254
X15.185 Y25.264
X15.181 Y25.275
X15.177 Y25.286
X15.174 Y25.297
X15.172 Y25.308
X15.169 Y25.32
X15.167 Y25.331
X15.164 Y25.355
X15.16 Y25.39
X15.161 Y25.412
X15.163 Y25.427
X15.165 Y25.442
X15.167 Y25.456
X15.171 Y25.475
X15.172 Y25.478
X15.133 Y25.482
X15.102 Y25.483
X15.088 Y25.484
X15.058 Y25.481
X15.043 Y25.48
X15.028 Y25.478
X15.014 Y25.476
X15. Y25.473
X14.987 Y25.47
X14.974 Y25.467
X14.961 Y25.462
X14.95 Y25.457
X14.939 Y25.451
X14.929 Y25.444
X14.92 Y25.436
X14.912 Y25.427
X14.905 Y25.417
X14.898 Y25.406
X14.892 Y25.394
X14.887 Y25.382
X14.883 Y25.369
X14.879 Y25.355
X14.875 Y25.341
X14.872 Y25.327
X14.865 Y25.298
X14.876 Y25.243
X14.883 Y25.206
X14.887 Y25.188
X14.896 Y25.152
X14.906 Y25.116
X14.917 Y25.081
X14.929 Y25.045
X14.941 Y25.01
X14.955 Y24.976
X14.968 Y24.941
X14.997 Y24.872
X15.021 Y24.809
X15.029 Y24.788
X15.044 Y24.746
X15.052 Y24.725
X15.066 Y24.682
X15.073 Y24.661
X15.079 Y24.639
X15.085 Y24.618
X15.09 Y24.596
X15.095 Y24.574
X15.1 Y24.553
X15.104 Y24.531
X15.108 Y24.509
X15.111 Y24.487
X15.117 Y24.442
X15.123 Y24.398
X15.128 Y24.353
X15.122 Y24.319
X15.115 Y24.285
X15.109 Y24.252
X15.102 Y24.219
X15.094 Y24.186
X15.085 Y24.154
X15.075 Y24.123
X15.064 Y24.093
X15.051 Y24.064
X15.037 Y24.035
X15.021 Y24.009
X15.003 Y23.983
X14.983 Y23.959
X14.962 Y23.936
X14.938 Y23.914
X14.914 Y23.894
X14.888 Y23.874
X14.861 Y23.855
X14.833 Y23.837
X14.804 Y23.819
X14.774 Y23.802
X14.745 Y23.785
X14.684 Y23.751
X14.621 Y23.729
X14.59 Y23.717
X14.559 Y23.706
X14.527 Y23.696
X14.496 Y23.686
X14.464 Y23.676
X14.432 Y23.667
X14.401 Y23.658
X14.369 Y23.65
X14.337 Y23.643
X14.304 Y23.636
X14.272 Y23.631
X14.239 Y23.626
X14.207 Y23.622
X14.174 Y23.618
X14.141 Y23.615
X14.108 Y23.612
X14.075 Y23.61
X14.042 Y23.608
X13.975 Y23.605
X13.909 Y23.603
X13.817 Y23.606
X13.787 Y23.607
X13.756 Y23.609
X13.695 Y23.612
X13.665 Y23.615
X13.635 Y23.617
X13.604 Y23.621
X13.574 Y23.624
X13.544 Y23.628
X13.514 Y23.633
X13.484 Y23.639
X13.455 Y23.645
X13.425 Y23.652
X13.396 Y23.659
X13.366 Y23.666
X13.337 Y23.674
X13.307 Y23.682
X13.248 Y23.699
X13.19 Y23.716
X13.132 Y23.739
X13.104 Y23.751
X13.076 Y23.764
X13.049 Y23.777
X13.022 Y23.79
X12.997 Y23.804
X12.972 Y23.819
X12.948 Y23.834
X12.925 Y23.851
X12.904 Y23.869
X12.884 Y23.888
X12.866 Y23.908
X12.849 Y23.93
X12.834 Y23.953
X12.821 Y23.978
X12.809 Y24.003
X12.798 Y24.03
X12.788 Y24.057
X12.78 Y24.086
X12.771 Y24.114
X12.763 Y24.143
X12.749 Y24.202
X12.766 Y24.246
X12.783 Y24.288
X12.801 Y24.33
X12.82 Y24.371
X12.84 Y24.411
X12.861 Y24.448
X12.884 Y24.483
X12.909 Y24.516
X12.936 Y24.545
X12.965 Y24.571
X12.997 Y24.594
X13.031 Y24.613
X13.068 Y24.629
X13.106 Y24.643
X13.147 Y24.654
X13.189 Y24.662
X13.232 Y24.669
X13.277 Y24.674
X13.323 Y24.677
X13.369 Y24.679
X13.417 Y24.68
X13.465 Y24.681
X13.513 Y24.68
X13.562
X14.12
X14.227 Y24.445
X13.792
X13.755 Y24.444
X13.73 Y24.443
X13.706 Y24.441
X13.694 Y24.44
X13.682 Y24.438
X13.67 Y24.437
X13.658 Y24.435
X13.646 Y24.433
X13.634 Y24.43
X13.622 Y24.427
X13.599 Y24.421
X13.587 Y24.417
X13.564 Y24.41
X13.552 Y24.406
X13.517 Y24.393
X13.506 Y24.388
X13.484 Y24.376
X13.463 Y24.363
X13.453 Y24.356
X13.443 Y24.349
X13.433 Y24.342
X13.424 Y24.335
X13.415 Y24.327
X13.407 Y24.319
X13.399 Y24.311
X13.392 Y24.302
X13.385 Y24.293
X13.38 Y24.283
X13.375 Y24.272
X13.37 Y24.262
X13.366 Y24.251
X13.363 Y24.239
X13.36 Y24.228
X13.357 Y24.216
X13.352 Y24.192
X13.348 Y24.167
X13.351 Y24.152
X13.359 Y24.122
X13.363 Y24.107
X13.367 Y24.093
X13.372 Y24.079
X13.378 Y24.065
X13.384 Y24.052
X13.39 Y24.039
X13.397 Y24.027
X13.406 Y24.015
X13.415 Y24.004
X13.425 Y23.994
X13.435 Y23.985
X13.446 Y23.975
X13.458 Y23.967
X13.47 Y23.958
X13.483 Y23.951
X13.496 Y23.943
X13.51 Y23.936
X13.538 Y23.921
X13.566 Y23.908
X13.61 Y23.892
X13.639 Y23.882
X13.668 Y23.873
X13.683 Y23.868
X13.713 Y23.86
X13.728 Y23.857
X13.743 Y23.854
X13.758 Y23.851
X13.773 Y23.848
X13.788 Y23.846
X13.803 Y23.844
X13.818 Y23.843
X13.849 Y23.84
X13.88 Y23.838
X13.927 Y23.836
X13.962 Y23.838
X13.998 Y23.84
X14.033 Y23.843
X14.051 Y23.844
X14.069 Y23.847
X14.086 Y23.849
X14.103 Y23.852
X14.12 Y23.855
X14.137 Y23.86
X14.154 Y23.864
X14.171 Y23.869
X14.188 Y23.875
X14.204 Y23.882
X14.22 Y23.888
X14.236 Y23.895
X14.253 Y23.903
X14.285 Y23.918
X14.316 Y23.935
X14.332 Y23.943
X14.36 Y23.966
X14.387 Y23.989
X14.4 Y24.001
X14.412 Y24.014
X14.425 Y24.026
X14.436 Y24.039
X14.447 Y24.052
X14.457 Y24.065
X14.466 Y24.079
X14.474 Y24.094
X14.482 Y24.109
X14.488 Y24.124
X14.494 Y24.14
X14.499 Y24.156
X14.503 Y24.173
X14.507 Y24.19
X14.51 Y24.207
X14.513 Y24.225
X14.515 Y24.243
X14.519 Y24.278
X14.521 Y24.296
X14.517 Y24.335
X14.509 Y24.394
X14.502 Y24.433
X14.499 Y24.452
X14.495 Y24.471
X14.491 Y24.49
X14.486 Y24.509
X14.481 Y24.528
X14.476 Y24.547
X14.47 Y24.566
X14.464 Y24.584
X14.458 Y24.603
X14.451 Y24.621
X14.437 Y24.658
X14.416 Y24.713
X14.386 Y24.787
X14.372 Y24.824
X14.358 Y24.862
X14.351 Y24.881
X14.344 Y24.899
X14.338 Y24.918
X14.332 Y24.937
X14.326 Y24.956
X14.321 Y24.975
X14.316 Y24.994
X14.311 Y25.014
X14.307 Y25.033
X14.303 Y25.052
X14.299 Y25.072
X14.293 Y25.111
X14.288 Y25.151
X14.283 Y25.19
X14.281 Y25.21
X14.3 Y25.258
X14.319 Y25.306
X14.34 Y25.353
X14.361 Y25.399
X14.383 Y25.443
X14.406 Y25.485
X14.432 Y25.525
X14.46 Y25.561
X14.49 Y25.594
X14.523 Y25.623
X14.559 Y25.648
X14.597 Y25.67
X14.638 Y25.688
X14.681 Y25.703
X14.726 Y25.715
X14.773 Y25.725
X14.822 Y25.732
X14.872 Y25.738
X14.923 Y25.742
X14.975 Y25.744
Z0.9
G0 Z2.
X16.016 Y25.276
Z0.9
G1 Z-0.1 F40.
X16.078 Y25.453
X16.606
X16.165 Y24.208
X16.611 Y24.574
X16.641 Y24.595
X16.656 Y24.605
X16.686 Y24.625
X16.701 Y24.634
X16.716 Y24.643
X16.732 Y24.652
X16.747 Y24.66
X16.763 Y24.667
X16.779 Y24.674
X16.795 Y24.681
X16.812 Y24.686
X16.828 Y24.691
X16.845 Y24.695
X16.862 Y24.699
X16.88 Y24.702
X16.897 Y24.705
X16.915 Y24.708
X16.95 Y24.712
X16.986 Y24.715
X17.004 Y24.716
X17.026 Y24.713
X17.036 Y24.711
X17.046 Y24.709
X17.057 Y24.707
X17.066 Y24.704
X17.076 Y24.701
X17.085 Y24.698
X17.093 Y24.694
X17.101 Y24.69
X17.108 Y24.684
X17.115 Y24.678
X17.12 Y24.672
X17.125 Y24.665
X17.13 Y24.657
X17.133 Y24.648
X17.137 Y24.639
X17.139 Y24.63
X17.142 Y24.62
X17.144 Y24.61
X17.146 Y24.599
X17.149 Y24.578
X17.151 Y24.567
X17.149 Y24.546
X17.147 Y24.53
X17.145 Y24.514
X17.143 Y24.504
X17.14 Y24.493
X17.135 Y24.473
X17.128 Y24.453
X16.938 Y23.918
X17.542
X17.529 Y23.888
X17.525 Y23.878
X17.52 Y23.868
X17.515 Y23.858
X17.51 Y23.849
X17.505 Y23.84
X17.5 Y23.83
X17.494 Y23.822
X17.488 Y23.813
X17.481 Y23.805
X17.474 Y23.797
X17.467 Y23.79
X17.459 Y23.783
X17.451 Y23.776
X17.443 Y23.77
X17.434 Y23.763
X17.425 Y23.757
X17.407 Y23.745
X17.379 Y23.728
X17.364 Y23.721
X17.341 Y23.712
X17.325 Y23.706
X17.309 Y23.701
X17.302 Y23.699
X17.286 Y23.694
X17.278 Y23.693
X17.261 Y23.69
X17.245 Y23.688
X17.229 Y23.686
X17.204 Y23.685
X17.187 Y23.684
X16.563
X16.531 Y23.685
X16.521 Y23.686
X16.511 Y23.687
X16.501 Y23.688
X16.491 Y23.69
X16.482 Y23.692
X16.473 Y23.695
X16.465 Y23.698
X16.457 Y23.701
X16.449 Y23.706
X16.442 Y23.711
X16.436 Y23.717
X16.431 Y23.723
X16.425 Y23.73
X16.421 Y23.738
X16.417 Y23.747
X16.413 Y23.756
X16.41 Y23.765
X16.406 Y23.774
X16.403 Y23.784
X16.398 Y23.804
X16.399 Y23.823
X16.4 Y23.833
X16.403 Y23.852
X16.405 Y23.867
X16.407 Y23.876
X16.411 Y23.89
X16.417 Y23.909
X16.42 Y23.918
X16.525 Y24.23
X15.97 Y23.773
X15.946 Y23.755
X15.929 Y23.743
X15.913 Y23.732
X15.905 Y23.726
X15.896 Y23.721
X15.887 Y23.716
X15.879 Y23.712
X15.87 Y23.708
X15.861 Y23.705
X15.851 Y23.701
X15.842 Y23.699
X15.832 Y23.696
X15.823 Y23.694
X15.803 Y23.69
X15.783 Y23.687
X15.753 Y23.684
X15.451
X16.016 Y25.276
Z0.9
G0 Z2.
X17.553 Y24.286
Z0.9
G1 Z-0.1 F40.
X17.562 Y24.306
X17.573 Y24.326
X17.584 Y24.346
X17.597 Y24.364
X17.61 Y24.383
X17.624 Y24.4
X17.639 Y24.418
X17.655 Y24.435
X17.671 Y24.452
X17.688 Y24.469
X17.705 Y24.486
X17.74 Y24.519
X17.78 Y24.543
X17.8 Y24.555
X17.82 Y24.567
X17.841 Y24.578
X17.861 Y24.59
X17.882 Y24.6
X17.903 Y24.61
X17.924 Y24.619
X17.945 Y24.628
X17.967 Y24.636
X17.989 Y24.643
X18.011 Y24.649
X18.033 Y24.655
X18.056 Y24.659
X18.078 Y24.663
X18.101 Y24.667
X18.125 Y24.669
X18.148 Y24.672
X18.171 Y24.674
X18.195 Y24.676
X18.242 Y24.678
X18.265 Y24.68
X19.102
X18.826 Y23.918
X19.434
X19.416 Y23.882
X19.406 Y23.864
X19.396 Y23.847
X19.386 Y23.83
X19.376 Y23.814
X19.365 Y23.798
X19.353 Y23.784
X19.341 Y23.77
X19.328 Y23.757
X19.314 Y23.746
X19.299 Y23.736
X19.284 Y23.727
X19.267 Y23.719
X19.25 Y23.712
X19.233 Y23.707
X19.214 Y23.702
X19.195 Y23.698
X19.176 Y23.695
X19.156 Y23.692
X19.136 Y23.689
X19.096 Y23.685
X19.075 Y23.684
X18.52
X18.491
X18.477
X18.462 Y23.685
X18.448 Y23.686
X18.435 Y23.687
X18.421 Y23.689
X18.408 Y23.691
X18.396 Y23.694
X18.384 Y23.698
X18.373 Y23.703
X18.362 Y23.708
X18.352 Y23.714
X18.343 Y23.721
X18.334 Y23.73
X18.327 Y23.739
X18.32 Y23.749
X18.313 Y23.76
X18.308 Y23.772
X18.302 Y23.784
X18.297 Y23.797
X18.288 Y23.823
X18.283 Y23.836
X18.255 Y23.81
X18.241 Y23.797
X18.227 Y23.785
X18.213 Y23.772
X18.199 Y23.76
X18.184 Y23.749
X18.169 Y23.738
X18.154 Y23.727
X18.139 Y23.718
X18.123 Y23.709
X18.107 Y23.701
X18.09 Y23.694
X18.074 Y23.687
X18.056 Y23.682
X18.039 Y23.677
X18.021 Y23.673
X18.003 Y23.669
X17.984 Y23.666
X17.966 Y23.663
X17.928 Y23.659
X17.89 Y23.654
X17.852 Y23.657
X17.839 Y23.659
X17.813 Y23.662
X17.801 Y23.663
X17.788 Y23.666
X17.776 Y23.668
X17.764 Y23.671
X17.752 Y23.675
X17.74 Y23.679
X17.729 Y23.683
X17.717 Y23.689
X17.706 Y23.694
X17.695 Y23.7
X17.685 Y23.707
X17.674 Y23.714
X17.663 Y23.721
X17.643 Y23.736
X17.612 Y23.76
X17.588 Y23.79
X17.573 Y23.81
X17.565 Y23.821
X17.558 Y23.831
X17.552 Y23.842
X17.546 Y23.853
X17.54 Y23.864
X17.535 Y23.875
X17.53 Y23.886
X17.526 Y23.898
X17.522 Y23.91
X17.519 Y23.922
X17.517 Y23.934
X17.514 Y23.946
X17.512 Y23.959
X17.511 Y23.971
X17.508 Y23.997
X17.506 Y24.022
X17.505 Y24.035
X17.51 Y24.083
X17.512 Y24.106
X17.515 Y24.13
X17.519 Y24.153
X17.523 Y24.176
X17.527 Y24.199
X17.532 Y24.221
X17.538 Y24.243
X17.545 Y24.265
X17.553 Y24.286
Z0.9
G0 Z2.
X18.328 Y24.445
Z0.9
G1 Z-0.1 F40.
X18.166
X18.063 Y24.104
X18.059 Y24.087
X18.057 Y24.077
X18.056 Y24.068
X18.055 Y24.06
X18.054 Y24.045
X18.066 Y24.021
X18.072 Y24.01
X18.079 Y23.998
X18.085 Y23.987
X18.092 Y23.977
X18.1 Y23.967
X18.108 Y23.958
X18.117 Y23.95
X18.126 Y23.943
X18.136 Y23.937
X18.146 Y23.932
X18.157 Y23.928
X18.169 Y23.925
X18.181 Y23.922
X18.194 Y23.92
X18.207 Y23.919
X18.22 Y23.917
X18.233
X18.247
X18.275
X18.303 Y23.918
X18.49 Y24.445
X18.328
Z0.9
G0 Z2.
X19.326 Y23.642
Z0.9
G1 Z-0.1 F40.
X19.806 Y25.034
X20.337
X20.215 Y24.68
X20.288
X20.325
X20.361 Y24.679
X20.398 Y24.678
X20.434 Y24.676
X20.471 Y24.674
X20.507 Y24.67
X20.525 Y24.668
X20.561 Y24.663
X20.597 Y24.658
X20.652 Y24.649
X20.689 Y24.633
X20.707 Y24.625
X20.725 Y24.617
X20.743 Y24.608
X20.76 Y24.599
X20.776 Y24.59
X20.792 Y24.579
X20.806 Y24.568
X20.82 Y24.557
X20.832 Y24.544
X20.844 Y24.531
X20.853 Y24.516
X20.862 Y24.501
X20.869 Y24.485
X20.875 Y24.468
X20.881 Y24.45
X20.885 Y24.431
X20.889 Y24.413
X20.892 Y24.393
X20.895 Y24.374
X20.9 Y24.334
X20.902 Y24.314
X20.896 Y24.281
X20.894 Y24.27
X20.89 Y24.249
X20.887 Y24.238
X20.884 Y24.228
X20.881 Y24.218
X20.878 Y24.207
X20.874 Y24.197
X20.869 Y24.187
X20.865 Y24.178
X20.86 Y24.168
X20.854 Y24.159
X20.849 Y24.149
X20.837 Y24.131
X20.831 Y24.122
X20.811 Y24.095
X20.798 Y24.078
X20.773 Y24.051
X20.757 Y24.034
X20.748 Y24.025
X20.74 Y24.017
X20.731 Y24.009
X20.722 Y24.001
X20.713 Y23.994
X20.704 Y23.986
X20.694 Y23.979
X20.684 Y23.973
X20.674 Y23.967
X20.664 Y23.961
X20.653 Y23.955
X20.643 Y23.95
X20.632 Y23.945
X20.61 Y23.936
X20.576 Y23.922
X20.565 Y23.918
X21.349
X21.342 Y23.891
X21.337 Y23.873
X21.334 Y23.864
X21.331 Y23.855
X21.328 Y23.847
X21.324 Y23.838
X21.32 Y23.83
X21.316 Y23.823
X21.311 Y23.815
X21.306 Y23.808
X21.3 Y23.801
X21.294 Y23.794
X21.288 Y23.788
X21.281 Y23.781
X21.275 Y23.775
X21.267 Y23.769
X21.253 Y23.758
X21.23 Y23.741
X21.204 Y23.728
X21.195 Y23.724
X21.178 Y23.716
X21.16 Y23.708
X21.142 Y23.702
X21.124 Y23.697
X21.114 Y23.695
X21.096 Y23.691
X21.086 Y23.69
X21.067 Y23.688
X21.048 Y23.686
X21.009 Y23.684
X20.211
X20.184 Y23.688
X20.158 Y23.693
X20.146 Y23.696
X20.133 Y23.699
X20.122 Y23.703
X20.111 Y23.707
X20.1 Y23.712
X20.09 Y23.718
X20.081 Y23.724
X20.073 Y23.731
X20.066 Y23.74
X20.06 Y23.749
X20.054 Y23.759
X20.049 Y23.769
X20.045 Y23.78
X20.041 Y23.792
X20.038 Y23.804
X20.035 Y23.817
X20.033 Y23.83
X20.03 Y23.843
X20.026 Y23.87
X20.06 Y23.884
X20.094 Y23.897
X20.134 Y23.913
X20.162 Y23.924
X20.19 Y23.938
X20.203 Y23.945
X20.223 Y23.956
X20.236 Y23.964
X20.248 Y23.973
X20.254 Y23.978
X20.265 Y23.988
X20.271 Y23.993
X20.288 Y24.009
X20.309 Y24.031
X20.324 Y24.055
X20.334 Y24.072
X20.339 Y24.08
X20.347 Y24.097
X20.351 Y24.105
X20.355 Y24.114
X20.358 Y24.123
X20.361 Y24.132
X20.364 Y24.141
X20.366 Y24.15
X20.368 Y24.159
X20.369 Y24.168
X20.371 Y24.178
X20.373 Y24.197
X20.375 Y24.216
X20.376 Y24.245
X20.373 Y24.266
X20.371 Y24.279
X20.369 Y24.286
X20.366 Y24.299
X20.364 Y24.306
X20.361 Y24.312
X20.359 Y24.318
X20.355 Y24.324
X20.352 Y24.33
X20.349 Y24.336
X20.34 Y24.347
X20.331 Y24.357
X20.322 Y24.367
X20.312 Y24.377
X20.302 Y24.387
X20.283 Y24.4
X20.27 Y24.408
X20.257 Y24.416
X20.244 Y24.423
X20.238 Y24.426
X20.231 Y24.429
X20.224 Y24.432
X20.217 Y24.434
X20.21 Y24.436
X20.203 Y24.438
X20.188 Y24.441
X20.174 Y24.442
X20.159 Y24.444
X20.136 Y24.445
X19.677 Y23.12
X19.146
X19.326 Y23.642
Z0.9
G0 Z2.
X21.246
Z0.9
G1 Z-0.1 F40.
X21.727 Y25.034
X22.257
X22.135 Y24.68
X22.209
X22.245
X22.282 Y24.679
X22.318 Y24.678
X22.355 Y24.676
X22.391 Y24.674
X22.409 Y24.672
X22.445 Y24.668
X22.482 Y24.663
X22.518 Y24.658
X22.572 Y24.649
X22.609 Y24.633
X22.628 Y24.625
X22.646 Y24.617
X22.663 Y24.608
X22.68 Y24.599
X22.697 Y24.59
X22.712 Y24.579
X22.727 Y24.568
X22.74 Y24.557
X22.753 Y24.544
X22.764 Y24.531
X22.774 Y24.516
X22.782 Y24.501
X22.79 Y24.485
X22.796 Y24.468
X22.801 Y24.45
X22.806 Y24.431
X22.81 Y24.413
X22.813 Y24.393
X22.816 Y24.374
X22.818 Y24.354
X22.823 Y24.314
X22.817 Y24.281
X22.815 Y24.27
X22.813 Y24.26
X22.807 Y24.238
X22.805 Y24.228
X22.801 Y24.218
X22.798 Y24.207
X22.794 Y24.197
X22.79 Y24.187
X22.785 Y24.178
X22.78 Y24.168
X22.775 Y24.159
X22.769 Y24.149
X22.764 Y24.14
X22.751 Y24.122
X22.732 Y24.095
X22.719 Y24.078
X22.694 Y24.051
X22.677 Y24.034
X22.669 Y24.025
X22.66 Y24.017
X22.651 Y24.009
X22.642 Y24.001
X22.633 Y23.994
X22.624 Y23.986
X22.614 Y23.979
X22.605 Y23.973
X22.595 Y23.967
X22.584 Y23.961
X22.574 Y23.955
X22.563 Y23.95
X22.552 Y23.945
X22.53 Y23.936
X22.497 Y23.922
X22.486 Y23.918
X23.269
X23.265 Y23.9
X23.26 Y23.882
X23.254 Y23.864
X23.251 Y23.855
X23.248 Y23.847
X23.245 Y23.838
X23.241 Y23.83
X23.236 Y23.823
X23.232 Y23.815
X23.226 Y23.808
X23.221 Y23.801
X23.215 Y23.794
X23.208 Y23.788
X23.202 Y23.781
X23.195 Y23.775
X23.188 Y23.769
X23.173 Y23.758
X23.151 Y23.741
X23.125 Y23.728
X23.107 Y23.72
X23.098 Y23.716
X23.08 Y23.708
X23.062 Y23.702
X23.053 Y23.699
X23.044 Y23.697
X23.035 Y23.695
X23.025 Y23.693
X23.016 Y23.691
X23.007 Y23.69
X22.987 Y23.688
X22.978 Y23.687
X22.939 Y23.684
X22.929
X22.131
X22.104 Y23.688
X22.079 Y23.693
X22.066 Y23.696
X22.054 Y23.699
X22.042 Y23.703
X22.031 Y23.707
X22.021 Y23.712
X22.011 Y23.718
X22.002 Y23.724
X21.994 Y23.731
X21.986 Y23.74
X21.98 Y23.749
X21.975 Y23.759
X21.97 Y23.769
X21.965 Y23.78
X21.962 Y23.792
X21.958 Y23.804
X21.956 Y23.817
X21.951 Y23.843
X21.947 Y23.87
X21.98 Y23.884
X22.014 Y23.897
X22.066 Y23.917
X22.083 Y23.924
X22.117 Y23.941
X22.13 Y23.948
X22.143 Y23.956
X22.156 Y23.964
X22.169 Y23.973
X22.174 Y23.978
X22.186 Y23.988
X22.192 Y23.993
X22.208 Y24.009
X22.229 Y24.031
X22.245 Y24.055
X22.254 Y24.072
X22.259 Y24.08
X22.268 Y24.097
X22.272 Y24.105
X22.275 Y24.114
X22.279 Y24.123
X22.282 Y24.132
X22.284 Y24.141
X22.286 Y24.15
X22.288 Y24.159
X22.29 Y24.168
X22.291 Y24.178
X22.293 Y24.197
X22.295 Y24.216
X22.297 Y24.245
X22.294 Y24.266
X22.291 Y24.279
X22.288 Y24.293
X22.286 Y24.299
X22.284 Y24.306
X22.282 Y24.312
X22.279 Y24.318
X22.276 Y24.324
X22.273 Y24.33
X22.269 Y24.336
X22.261 Y24.347
X22.252 Y24.357
X22.247 Y24.362
X22.237 Y24.372
X22.222 Y24.387
X22.203 Y24.4
X22.191 Y24.408
X22.178 Y24.416
X22.165 Y24.423
X22.158 Y24.426
X22.151 Y24.429
X22.145 Y24.432
X22.138 Y24.434
X22.131 Y24.436
X22.123 Y24.438
X22.109 Y24.441
X22.094 Y24.442
X22.079 Y24.444
X22.056 Y24.445
X21.598 Y23.12
X21.066
X21.246 Y23.642
Z0.9
G0 Z2.
X23.221 Y24.113
Z0.9
G1 Z-0.1 F40.
X23.226 Y24.157
X23.229 Y24.179
X23.233 Y24.201
X23.237 Y24.222
X23.241 Y24.244
X23.246 Y24.265
X23.251 Y24.285
X23.258 Y24.305
X23.265 Y24.325
X23.274 Y24.344
X23.284 Y24.362
X23.294 Y24.379
X23.306 Y24.396
X23.319 Y24.413
X23.333 Y24.429
X23.347 Y24.444
X23.363 Y24.459
X23.379 Y24.474
X23.395 Y24.489
X23.412 Y24.503
X23.447 Y24.531
X23.464 Y24.545
X23.483 Y24.555
X23.523 Y24.575
X23.562 Y24.595
X23.582 Y24.604
X23.601 Y24.613
X23.621 Y24.621
X23.642 Y24.629
X23.662 Y24.636
X23.682 Y24.643
X23.703 Y24.649
X23.724 Y24.654
X23.745 Y24.658
X23.766 Y24.662
X23.788 Y24.666
X23.809 Y24.668
X23.831 Y24.671
X23.853 Y24.673
X23.874 Y24.675
X23.918 Y24.677
X23.962 Y24.68
X24.174
X24.216 Y24.678
X24.244 Y24.677
X24.272 Y24.675
X24.3 Y24.673
X24.313 Y24.671
X24.327 Y24.669
X24.341 Y24.667
X24.354 Y24.665
X24.368 Y24.662
X24.381 Y24.659
X24.408 Y24.652
X24.421 Y24.648
X24.461 Y24.636
X24.501 Y24.623
X24.539 Y24.604
X24.551 Y24.598
X24.563 Y24.591
X24.575 Y24.585
X24.586 Y24.578
X24.597 Y24.57
X24.608 Y24.563
X24.618 Y24.554
X24.627 Y24.546
X24.636 Y24.537
X24.644 Y24.527
X24.651 Y24.516
X24.658 Y24.505
X24.664 Y24.494
X24.669 Y24.482
X24.674 Y24.47
X24.679 Y24.457
X24.683 Y24.444
X24.687 Y24.431
X24.694 Y24.405
X24.698 Y24.391
X24.694 Y24.364
X24.692 Y24.351
X24.691 Y24.338
X24.688 Y24.324
X24.686 Y24.312
X24.683 Y24.299
X24.679 Y24.287
X24.675 Y24.274
X24.671 Y24.263
X24.665 Y24.251
X24.659 Y24.24
X24.652 Y24.23
X24.645 Y24.219
X24.637 Y24.209
X24.628 Y24.2
X24.619 Y24.191
X24.61 Y24.182
X24.6 Y24.173
X24.579 Y24.156
X24.557 Y24.139
X24.547 Y24.131
X24.062
X24.22 Y24.445
X23.911
X23.79 Y24.09
X23.785 Y24.074
X23.783 Y24.065
X23.782 Y24.056
X23.781 Y24.044
Y24.037
X23.788 Y24.016
X23.792 Y24.006
X23.796 Y23.996
X23.801 Y23.986
X23.806 Y23.977
X23.811 Y23.968
X23.816 Y23.96
X23.823 Y23.953
X23.829 Y23.947
X23.837 Y23.941
X23.845 Y23.936
X23.853 Y23.932
X23.862 Y23.929
X23.872 Y23.926
X23.882 Y23.924
X23.892 Y23.922
X23.903 Y23.92
X23.914
X23.925 Y23.919
X23.948 Y23.918
X25.114
X25.103 Y23.891
X25.095 Y23.873
X25.091 Y23.864
X25.087 Y23.855
X25.082 Y23.847
X25.077 Y23.839
X25.072 Y23.83
X25.067 Y23.823
X25.061 Y23.815
X25.055 Y23.808
X25.049 Y23.801
X25.042 Y23.794
X25.035 Y23.788
X25.02 Y23.775
X25.005 Y23.764
X24.989 Y23.752
X24.973 Y23.741
X24.946 Y23.728
X24.928 Y23.72
X24.91 Y23.712
X24.902 Y23.709
X24.892 Y23.706
X24.883 Y23.702
X24.874 Y23.7
X24.865 Y23.697
X24.855 Y23.695
X24.846 Y23.693
X24.836 Y23.691
X24.817 Y23.689
X24.798 Y23.687
X24.788 Y23.686
X24.749 Y23.684
X23.933
X23.89
X23.847
X23.805
X23.763 Y23.685
X23.722 Y23.687
X23.681 Y23.691
X23.642 Y23.695
X23.604 Y23.701
X23.567 Y23.709
X23.531 Y23.719
X23.497 Y23.731
X23.465 Y23.746
X23.435 Y23.763
X23.407 Y23.784
X23.382 Y23.807
X23.358 Y23.834
X23.337 Y23.863
X23.317 Y23.894
X23.299 Y23.927
X23.282 Y23.963
X23.266 Y23.999
X23.25 Y24.036
X23.236 Y24.074
X23.221 Y24.113
Z0.9
G0 Z2.
X25.092 Y23.843
Z0.9
G1 Z-0.1 F40.
X25.094 Y23.857
X25.095 Y23.868
X25.097 Y23.879
X25.1 Y23.893
X25.107 Y23.915
X25.108 Y23.918
X25.651 Y25.45
X26.17
X25.623 Y23.918
X26.239
X26.226 Y23.887
X26.221 Y23.877
X26.212 Y23.857
X26.206 Y23.848
X26.201 Y23.838
X26.195 Y23.829
X26.189 Y23.82
X26.183 Y23.812
X26.176 Y23.804
X26.169 Y23.796
X26.161 Y23.789
X26.153 Y23.782
X26.145 Y23.775
X26.136 Y23.768
X26.127 Y23.762
X26.118 Y23.756
X26.099 Y23.744
X26.08 Y23.733
X26.07 Y23.728
X26.054 Y23.721
X26.038 Y23.715
X26.014 Y23.706
X25.998 Y23.701
X25.99 Y23.699
X25.974 Y23.694
X25.965 Y23.693
X25.957 Y23.691
X25.94 Y23.689
X25.923 Y23.687
X25.889 Y23.685
X25.872 Y23.684
X25.308
X25.268 Y23.685
X25.254 Y23.686
X25.241 Y23.687
X25.229 Y23.688
X25.216 Y23.69
X25.204 Y23.693
X25.193 Y23.696
X25.182 Y23.699
X25.171 Y23.704
X25.161 Y23.709
X25.152 Y23.715
X25.144 Y23.722
X25.136 Y23.73
X25.13 Y23.739
X25.124 Y23.749
X25.118 Y23.76
X25.113 Y23.771
X25.108 Y23.782
X25.104 Y23.794
X25.1 Y23.807
X25.091 Y23.832
X25.092 Y23.843
Z0.9
G0 Z2.
X26.214 Y23.839
Z0.9
G1 Z-0.1 F40.
X26.216 Y23.857
X26.217 Y23.868
X26.22 Y23.883
X26.223 Y23.897
X26.23 Y23.918
X26.773 Y25.45
X27.292
X26.745 Y23.918
X27.361
X27.348 Y23.887
X27.343 Y23.877
X27.338 Y23.867
X27.329 Y23.848
X27.323 Y23.838
X27.317 Y23.829
X27.311 Y23.82
X27.305 Y23.812
X27.298 Y23.804
X27.291 Y23.796
X27.283 Y23.789
X27.275 Y23.782
X27.267 Y23.775
X27.258 Y23.768
X27.249 Y23.762
X27.24 Y23.756
X27.221 Y23.744
X27.202 Y23.733
X27.192 Y23.728
X27.176 Y23.721
X27.152 Y23.712
X27.136 Y23.706
X27.12 Y23.701
X27.112 Y23.699
X27.096 Y23.694
X27.079 Y23.691
X27.071 Y23.69
X27.054 Y23.688
X27.045 Y23.687
X27.02 Y23.685
X26.994 Y23.684
X26.43
X26.39 Y23.685
X26.376 Y23.686
X26.363 Y23.687
X26.351 Y23.688
X26.338 Y23.69
X26.326 Y23.693
X26.315 Y23.696
X26.304 Y23.699
X26.293 Y23.704
X26.283 Y23.709
X26.274 Y23.715
X26.266 Y23.722
X26.259 Y23.73
X26.252 Y23.739
X26.246 Y23.749
X26.24 Y23.76
X26.235 Y23.771
X26.23 Y23.782
X26.226 Y23.794
X26.222 Y23.807
X26.214 Y23.832
Y23.839
Z0.9
G0 Z2.
X29.052 Y24.71
Z0.9
G1 Z-0.1 F40.
Y24.8
X29.637 Y26.015
Y26.47
X29.247
Y26.041
X29.076
Y26.485
X29.077 Y26.499
X29.079 Y26.512
X29.08 Y26.521
X29.083 Y26.529
X29.085 Y26.538
X29.089 Y26.546
X29.093 Y26.553
X29.095 Y26.557
X29.1 Y26.565
X29.108 Y26.575
X29.114 Y26.583
X29.128 Y26.594
X29.14 Y26.601
X29.147 Y26.606
X29.155 Y26.61
X29.163 Y26.613
X29.172 Y26.615
X29.18 Y26.617
X29.189 Y26.618
X29.207 Y26.62
X29.212
X29.672
X29.69 Y26.619
X29.699 Y26.618
X29.708 Y26.616
X29.717 Y26.614
X29.725 Y26.611
X29.729 Y26.61
X29.737 Y26.606
X29.744 Y26.601
X29.752 Y26.596
X29.755 Y26.594
X29.77 Y26.583
X29.781 Y26.568
X29.786 Y26.561
X29.791 Y26.553
X29.793 Y26.55
X29.795 Y26.546
X29.799 Y26.538
X29.801 Y26.529
X29.803 Y26.521
X29.805 Y26.512
X29.807 Y26.494
X29.808 Y26.485
Y26.08
X29.805 Y26.051
X29.804 Y26.043
X29.802 Y26.029
X29.799 Y26.015
X29.798 Y26.008
X29.794 Y25.994
X29.788 Y25.973
X29.783 Y25.959
X29.774 Y25.939
X29.762 Y25.912
X29.257 Y24.86
X29.81
Y24.71
X29.052
Z0.9
G0 Z2.
X30.732 Y26.412
Z0.9
G1 Z-0.1 F40.
X30.638 Y26.575
X32.37 Y27.575
X32.745 Y26.925
X31.013 Y25.925
X30.732 Y26.412
Z0.9
G0 Z2.
X25.719 Y28.288
Z0.9
G1 Z-0.1 F40.
X25.548
Y29.613
X25.474
Z0.9
G0 Z2.
Y29.619
Z0.9
G1 Z-0.1 F40.
X25.581 Y30.199
X25.719
Y28.288
Z0.9
G0 Z2.
X26.575 Y30.638
Z0.9
G1 Z-0.1 F40.
X25.925 Y31.013
X26.925 Y32.745
X27.575 Y32.37
X26.575 Y30.638
Z0.9
G0 Z2.
X20.675 Y30.863
Z0.9
G1 Z-0.1 F40.
X20.676 Y30.854
X20.678 Y30.845
X20.679 Y30.832
X20.68 Y30.822
Y30.417
X20.678 Y30.403
X20.676 Y30.381
X20.674 Y30.367
X20.673 Y30.359
X20.67 Y30.345
X20.668 Y30.338
X20.664 Y30.324
X20.66 Y30.31
X20.652 Y30.29
X20.646 Y30.277
X20.635 Y30.25
X20.129 Y29.198
X20.682
Y29.048
X19.924
Y29.138
X20.509 Y30.353
Y30.808
X20.119
Y30.378
X19.948
Y30.822
X19.95 Y30.841
X19.951 Y30.85
X19.952 Y30.858
X19.955 Y30.867
X19.957 Y30.875
X19.961 Y30.883
X19.965 Y30.891
X19.97 Y30.898
X19.978 Y30.909
X19.986 Y30.92
X19.997 Y30.929
X20.008 Y30.937
X20.015 Y30.941
X20.023 Y30.946
X20.031 Y30.949
X20.039 Y30.952
X20.048 Y30.954
X20.052 Y30.955
X20.066 Y30.956
X20.075 Y30.957
X20.084 Y30.958
X20.544
X20.558 Y30.957
X20.571 Y30.955
X20.576
X20.584 Y30.953
X20.593 Y30.951
X20.597 Y30.949
X20.605 Y30.946
X20.613 Y30.941
X20.62 Y30.937
X20.628 Y30.931
X20.635 Y30.926
X20.642 Y30.92
X20.65 Y30.909
X20.656 Y30.902
X20.661 Y30.895
X20.665 Y30.887
X20.667 Y30.883
X20.671 Y30.875
X20.674 Y30.867
X20.675 Y30.863
Z0.9
G0 Z2.
X19.409 Y30.378
Z0.9
G1 Z-0.1 F40.
X19.516 Y30.958
X19.654
Y29.048
X19.483
Y30.372
X19.409
Z0.9
G0 Z2.
X20. Y31.75
Z0.9
G1 Z-0.1 F40.
X19.25 Y34.5
X20.75
X20. Y31.75
Z0.9
G0 Z2.
Y34.5
Z0.9
G1 Z-0.1 F40.
Y31.75
Z0.9
G0 Z2.
X11.339 Y26.423
Z0.9
G1 Z-0.1 F40.
X11.343 Y26.415
X11.345 Y26.411
X11.348 Y26.403
X11.35 Y26.399
X11.352 Y26.39
X11.353 Y26.381
X11.355 Y26.368
X11.356 Y26.354
Y24.715
X11.355 Y24.701
X11.353 Y24.687
X11.352 Y24.678
X11.35 Y24.67
X11.348 Y24.666
X11.347 Y24.662
X11.345 Y24.657
X11.341 Y24.65
X11.339 Y24.646
X11.334 Y24.638
X11.331 Y24.635
X11.323 Y24.624
X11.317 Y24.617
X11.306 Y24.608
X11.299 Y24.603
X11.291 Y24.598
X11.283 Y24.594
X11.276 Y24.59
X11.267 Y24.587
X11.263 Y24.585
X11.259 Y24.584
X11.25 Y24.582
X11.236 Y24.58
X11.218 Y24.579
X10.712
X10.693 Y24.58
X10.684 Y24.582
X10.676 Y24.583
X10.671 Y24.584
X10.663 Y24.586
X10.655 Y24.59
X10.647 Y24.593
X10.639 Y24.598
X10.628 Y24.606
X10.614 Y24.617
X10.603 Y24.631
X10.595 Y24.642
X10.59 Y24.65
X10.588 Y24.654
X10.585 Y24.662
X10.582 Y24.67
X10.58 Y24.679
X10.578 Y24.692
X10.577 Y24.701
X10.576 Y24.715
Y26.354
X10.577 Y26.368
X10.579 Y26.381
X10.58 Y26.39
X10.582 Y26.398
X10.585 Y26.407
X10.588 Y26.415
X10.593 Y26.422
X10.595 Y26.426
X10.603 Y26.437
X10.614 Y26.452
X10.628 Y26.463
X10.639 Y26.471
X10.647 Y26.475
X10.655 Y26.479
X10.663 Y26.482
X10.671 Y26.484
X10.68 Y26.486
X10.689 Y26.487
X10.707 Y26.489
X10.712
X11.218
X11.236 Y26.488
X11.25 Y26.486
X11.259 Y26.484
X11.263 Y26.483
X11.271 Y26.48
X11.276 Y26.479
X11.283 Y26.475
X11.291 Y26.47
X11.299 Y26.465
X11.31 Y26.457
X11.317 Y26.452
X11.326 Y26.441
X11.331 Y26.434
X11.336 Y26.426
X11.339 Y26.423
Z0.9
G0 Z2.
X11.186 Y26.339
Z0.9
G1 Z-0.1 F40.
X10.746
Y24.729
X11.186
Y26.339
Z0.9
G0 Z2.
X10.259 Y24.579
Z0.9
G1 Z-0.1 F40.
X10.088
Y25.903
X10.013
Z0.9
G0 Z2.
Y25.91
Z0.9
G1 Z-0.1 F40.
X10.121 Y26.489
X10.259
Y24.579
Z0.9
G0 Z2.
X8.987 Y25.925
Z0.9
G1 Z-0.1 F40.
X7.255 Y26.925
X7.63 Y27.575
X9.362 Y26.575
X8.987 Y25.925
Z0.9
G0 Z2.
X8.369 Y20.919
Z0.9
G1 Z-0.1 F40.
X8.387 Y20.92
X8.876
X8.894 Y20.919
X8.903 Y20.918
X8.911 Y20.916
X8.916 Y20.915
X8.92 Y20.914
X8.928 Y20.912
X8.936 Y20.908
X8.944 Y20.904
X8.951 Y20.899
X8.959 Y20.894
X8.973 Y20.883
X8.984 Y20.868
X8.991 Y20.857
X8.996 Y20.85
X8.998 Y20.846
X9.001 Y20.838
X9.003 Y20.833
X9.005 Y20.825
X9.007 Y20.816
X9.009 Y20.803
X9.01 Y20.785
Y19.146
X9.009 Y19.127
X9.007 Y19.114
X9.005 Y19.105
X9.003 Y19.097
X9.001 Y19.093
X8.998 Y19.085
X8.994 Y19.077
X8.989 Y19.07
X8.984 Y19.062
X8.973 Y19.048
X8.955 Y19.034
X8.948 Y19.029
X8.94 Y19.024
X8.936 Y19.022
X8.928 Y19.019
X8.92 Y19.016
X8.916 Y19.015
X8.907 Y19.013
X8.898 Y19.012
X8.88 Y19.01
X8.876
X8.398
X8.38 Y19.011
X8.367 Y19.013
X8.358 Y19.015
X8.354 Y19.016
X8.349 Y19.017
X8.341 Y19.021
X8.333 Y19.024
X8.325 Y19.029
X8.318 Y19.034
X8.307 Y19.042
X8.3 Y19.048
X8.288 Y19.062
X8.283 Y19.069
X8.278 Y19.077
X8.273 Y19.084
X8.271 Y19.088
X8.268 Y19.097
X8.266 Y19.105
X8.264 Y19.114
X8.263 Y19.123
X8.261 Y19.136
X8.26 Y19.146
Y19.568
X8.43
Y19.16
X8.84
Y19.867
X8.387
X8.369 Y19.868
X8.36 Y19.869
X8.352 Y19.871
X8.347 Y19.872
X8.343 Y19.873
X8.339 Y19.874
X8.331 Y19.877
X8.323 Y19.881
X8.316 Y19.886
X8.308 Y19.891
X8.297 Y19.899
X8.29 Y19.905
X8.282 Y19.916
X8.274 Y19.927
X8.269 Y19.934
X8.265 Y19.942
X8.262 Y19.95
X8.259 Y19.958
X8.257 Y19.967
X8.256 Y19.975
X8.254 Y19.989
X8.253 Y20.002
Y20.785
X8.255 Y20.803
X8.256 Y20.812
X8.257 Y20.821
X8.259 Y20.829
X8.262 Y20.838
X8.265 Y20.846
X8.269 Y20.853
X8.274 Y20.861
X8.282 Y20.872
X8.29 Y20.883
X8.308 Y20.896
X8.316 Y20.902
X8.323 Y20.906
X8.327 Y20.908
X8.335 Y20.912
X8.343 Y20.914
X8.347 Y20.915
X8.356 Y20.917
X8.365 Y20.918
X8.369 Y20.919
Z0.9
G0 Z2.
X8.84 Y20.77
Z0.9
G1 Z-0.1 F40.
X8.423
Y20.015
X8.84
Y20.77
Z0.9
G0 Z2.
X7.5 Y20.
Z0.9
G1 Z-0.1 F40.
Y19.625
X5.5
Y20.375
X7.5
Y20.
Z0.9
G0 Z2.
X10.053 Y15.383
Z0.9
G1 Z-0.1 F40.
X10.067 Y15.394
X10.078 Y15.401
X10.086 Y15.406
X10.094 Y15.41
X10.102 Y15.413
X10.11 Y15.415
X10.119 Y15.417
X10.128 Y15.418
X10.146 Y15.42
X10.15
X10.645
X10.663 Y15.419
X10.672 Y15.418
X10.681 Y15.416
X10.689 Y15.414
X10.698 Y15.411
X10.702 Y15.41
X10.71 Y15.406
X10.717 Y15.401
X10.724 Y15.396
X10.728 Y15.394
X10.742 Y15.383
X10.754 Y15.368
X10.759 Y15.361
X10.764 Y15.353
X10.766 Y15.35
X10.768 Y15.346
X10.771 Y15.338
X10.773 Y15.334
X10.775 Y15.325
X10.776 Y15.321
X10.778 Y15.312
X10.779 Y15.303
X10.78 Y15.285
Y14.745
X10.779 Y14.733
X10.777 Y14.714
X10.775 Y14.703
X10.772 Y14.691
X10.768 Y14.68
X10.766 Y14.675
X10.763 Y14.67
X10.76 Y14.665
X10.756 Y14.66
X10.753 Y14.655
X10.749 Y14.651
X10.745 Y14.647
X10.736 Y14.638
X10.726 Y14.63
X10.717 Y14.622
X10.537 Y14.51
X10.719 Y14.39
X10.734 Y14.378
X10.743 Y14.37
X10.747 Y14.366
X10.751 Y14.361
X10.755 Y14.357
X10.759 Y14.353
X10.763 Y14.348
X10.766 Y14.343
X10.769 Y14.338
X10.771 Y14.333
X10.774 Y14.328
X10.776 Y14.322
X10.777 Y14.316
X10.779 Y14.311
X10.781 Y14.299
X10.784 Y14.28
X10.785 Y14.268
Y13.646
X10.784 Y13.627
X10.782 Y13.614
X10.78 Y13.605
X10.777 Y13.597
X10.774 Y13.588
X10.77 Y13.581
X10.766 Y13.573
X10.76 Y13.566
X10.752 Y13.555
X10.746 Y13.548
X10.731 Y13.537
X10.728 Y13.534
X10.72 Y13.529
X10.713 Y13.524
X10.705 Y13.521
X10.696 Y13.517
X10.688 Y13.515
X10.675 Y13.513
X10.665 Y13.512
X10.647 Y13.51
X10.144
X10.126 Y13.512
X10.117 Y13.513
X10.108 Y13.514
X10.104 Y13.515
X10.096 Y13.517
X10.092 Y13.519
X10.084 Y13.522
X10.076 Y13.527
X10.069 Y13.531
X10.061 Y13.537
X10.047 Y13.548
X10.036 Y13.562
X10.031 Y13.57
X10.026 Y13.577
X10.024 Y13.581
X10.022 Y13.585
X10.019 Y13.593
X10.016 Y13.601
X10.014 Y13.61
X10.012 Y13.618
X10.011 Y13.632
X10.01 Y13.646
Y14.268
X10.012 Y14.286
X10.013 Y14.299
X10.016 Y14.31
X10.017 Y14.316
X10.018 Y14.322
X10.022 Y14.333
X10.025 Y14.338
X10.027 Y14.343
X10.03 Y14.347
X10.034 Y14.352
X10.037 Y14.357
X10.041 Y14.361
X10.045 Y14.366
X10.054 Y14.374
X10.063 Y14.382
X10.072 Y14.39
X10.258 Y14.51
X10.077 Y14.622
X10.063 Y14.634
X10.059 Y14.638
X10.05 Y14.647
X10.042 Y14.656
X10.038 Y14.66
X10.035 Y14.665
X10.032 Y14.67
X10.029 Y14.675
X10.027 Y14.68
X10.025 Y14.686
X10.023 Y14.691
X10.021 Y14.697
X10.02 Y14.703
X10.018 Y14.715
X10.017 Y14.727
X10.015 Y14.745
Y15.285
X10.016 Y15.303
X10.017 Y15.312
X10.019 Y15.321
X10.021 Y15.329
X10.024 Y15.338
X10.027 Y15.346
X10.029 Y15.35
X10.034 Y15.357
X10.042 Y15.368
X10.053 Y15.383
Z0.9
G0 Z2.
X10.614 Y14.292
Z0.9
G1 Z-0.1 F40.
X10.397 Y14.435
X10.18 Y14.292
Y13.66
X10.614
Y14.292
Z0.9
G0 Z2.
X10.397 Y14.581
Z0.9
G1 Z-0.1 F40.
X10.609 Y14.722
Y15.27
X10.185
Y14.722
X10.397 Y14.581
Z0.9
G0 Z2.
X9.081 Y13.912
Z0.9
G1 Z-0.1 F40.
X9.362 Y13.425
X7.63 Y12.425
X7.255 Y13.075
X8.987 Y14.075
X9.081 Y13.912
Z0.9
G0 Z2.
X14.257 Y11.54
Z0.9
G1 Z-0.1 F40.
X15.014
Y11.452
X14.604 Y9.63
X14.437
X14.835 Y11.39
X14.427
Y11.109
X14.257
Y11.54
Z0.9
G0 Z2.
X13.75 Y9.175
Z0.9
G1 Z-0.1 F40.
X14.075 Y8.987
X13.075 Y7.255
X12.425 Y7.63
X13.425 Y9.362
X13.75 Y9.175
Z0.9
G0 Z2.
X19.625 Y7.5
Z0.9
G1 Z-0.1 F40.
X20.375
Y5.5
X19.625
Y7.5
Z0.9
G0 Z2.
X19.771 Y8.443
Z0.9
G1 Z-0.1 F40.
X19.752 Y8.445
X19.743 Y8.446
X19.735 Y8.447
X19.726 Y8.449
X19.722 Y8.45
X19.718 Y8.452
X19.71 Y8.455
X19.702 Y8.46
X19.694 Y8.464
X19.687 Y8.47
X19.673 Y8.481
X19.662 Y8.495
X19.654 Y8.506
X19.649 Y8.514
X19.646 Y8.522
X19.642 Y8.53
X19.641 Y8.534
X19.64 Y8.538
X19.638 Y8.547
X19.637 Y8.556
X19.635 Y8.574
Y8.579
Y10.218
X19.636 Y10.236
X19.638 Y10.245
X19.639 Y10.254
X19.64 Y10.258
X19.642 Y10.267
X19.646 Y10.275
X19.649 Y10.283
X19.654 Y10.29
X19.662 Y10.301
X19.673 Y10.316
X19.687 Y10.327
X19.691 Y10.33
X19.698 Y10.335
X19.706 Y10.339
X19.71 Y10.341
X19.718 Y10.345
X19.726 Y10.347
X19.735 Y10.349
X19.748 Y10.351
X19.761 Y10.353
X19.771
X20.253
X20.271 Y10.352
X20.28 Y10.351
X20.288 Y10.349
X20.297 Y10.347
X20.301 Y10.346
X20.309 Y10.343
X20.317 Y10.339
X20.325 Y10.335
X20.328 Y10.332
X20.339 Y10.324
X20.35 Y10.316
X20.361 Y10.301
X20.366 Y10.294
X20.371 Y10.286
X20.375 Y10.279
X20.378 Y10.271
X20.38 Y10.267
X20.382 Y10.258
X20.384 Y10.249
X20.385 Y10.241
X20.386 Y10.227
X20.387 Y10.218
Y9.796
X20.217
Y10.203
X19.805
Y9.495
X20.258
X20.276 Y9.494
X20.289 Y9.492
X20.298 Y9.49
X20.306 Y9.488
X20.31 Y9.487
X20.314 Y9.485
X20.322 Y9.481
X20.329 Y9.477
X20.337 Y9.472
X20.351 Y9.461
X20.355 Y9.458
X20.366 Y9.444
X20.373 Y9.433
X20.378 Y9.425
X20.38 Y9.421
X20.382 Y9.417
X20.383 Y9.413
X20.386 Y9.405
X20.388 Y9.397
X20.389 Y9.392
X20.39 Y9.379
X20.392 Y9.366
Y9.361
Y8.579
X20.391 Y8.565
X20.39 Y8.556
X20.389 Y8.547
X20.387 Y8.538
X20.385 Y8.53
X20.383 Y8.526
X20.38 Y8.518
X20.378 Y8.514
X20.373 Y8.506
X20.368 Y8.499
X20.357 Y8.484
X20.355 Y8.481
X20.34 Y8.47
X20.333 Y8.464
X20.326 Y8.46
X20.318 Y8.455
X20.314 Y8.454
X20.31 Y8.452
X20.306 Y8.45
X20.298 Y8.448
X20.289 Y8.446
X20.276 Y8.445
X20.258 Y8.443
X19.771
Z0.9
G0 Z2.
X20.222 Y9.348
Z0.9
G1 Z-0.1 F40.
X19.805
Y8.593
X20.222
Y9.348
Z0.9
G0 Z2.
X25.275 Y9.833
Z0.9
G1 Z-0.1 F40.
X25.274 Y9.842
X25.272 Y9.851
X25.271 Y9.864
X25.27 Y9.873
Y10.358
X25.44
Y9.888
X25.84
Y10.788
X25.275
X25.297 Y11.648
X25.995
Y11.498
X25.463
X25.442 Y10.938
X25.875
X25.893 Y10.936
X25.902 Y10.935
X25.91 Y10.934
X25.919 Y10.932
X25.923 Y10.93
X25.931 Y10.927
X25.939 Y10.923
X25.947 Y10.919
X25.958 Y10.911
X25.972 Y10.9
X25.983 Y10.885
X25.991 Y10.875
X25.996 Y10.867
X26. Y10.859
X26.003 Y10.851
X26.004 Y10.847
X26.006 Y10.838
X26.008 Y10.825
X26.01 Y10.807
Y10.802
Y9.873
X26.008 Y9.855
X26.007 Y9.846
X26.006 Y9.837
X26.005 Y9.833
X26.004 Y9.829
X26.003 Y9.825
X26. Y9.816
X25.996 Y9.809
X25.991 Y9.801
X25.983 Y9.79
X25.972 Y9.776
X25.958 Y9.764
X25.951 Y9.759
X25.943 Y9.754
X25.935 Y9.75
X25.927 Y9.747
X25.923 Y9.745
X25.915 Y9.743
X25.906 Y9.741
X25.897 Y9.74
X25.884 Y9.738
X25.875
X25.404
X25.386 Y9.739
X25.378 Y9.74
X25.369 Y9.742
X25.36 Y9.744
X25.352 Y9.747
X25.344 Y9.75
X25.336 Y9.754
X25.333 Y9.757
X25.322 Y9.764
X25.308 Y9.776
X25.296 Y9.79
X25.291 Y9.797
X25.287 Y9.805
X25.282 Y9.813
X25.279 Y9.821
X25.278 Y9.825
X25.275 Y9.833
Z0.9
G0 Z2.
X26.575 Y9.362
Z0.9
G1 Z-0.1 F40.
X27.575 Y7.63
X26.925 Y7.255
X25.925 Y8.987
X26.575 Y9.362
Z0.9
G0 Z2.
X30.638 Y13.425
Z0.9
G1 Z-0.1 F40.
X31.013 Y14.075
X32.745 Y13.075
X32.37 Y12.425
X30.638 Y13.425
Z0.9
G0 Z2.
X29.855 Y14.008
Z0.9
G1 Z-0.1 F40.
X29.709
Y13.51
X29.55
Y14.008
X29.01
Y14.095
X29.473 Y15.42
X29.633
Z0.9
G0 Z2.
Y15.413
Z0.9
G1 Z-0.1 F40.
X29.193 Y14.152
X29.55
Y14.845
X29.709
Y14.152
X29.855
Y14.008
Z0.9
G0 Z2.
X31.273 Y19.004
Z0.9
G1 Z-0.1 F40.
X31.269 Y19.005
X31.261 Y19.008
X31.253 Y19.012
X31.245 Y19.017
X31.238 Y19.022
X31.227 Y19.03
X31.22 Y19.035
X31.209 Y19.05
X31.203 Y19.057
X31.198 Y19.065
X31.196 Y19.068
X31.192 Y19.076
X31.189 Y19.084
X31.187 Y19.093
X31.186 Y19.097
X31.184 Y19.11
X31.183 Y19.124
X31.182 Y19.133
Y19.618
X31.352
Y19.148
X31.774
Y19.733
X31.437 Y19.985
Y20.023
X31.771 Y20.272
Y20.758
X31.354
Y20.328
X31.184
Y20.772
X31.185 Y20.786
X31.187 Y20.8
X31.188 Y20.808
X31.191 Y20.817
X31.193 Y20.825
X31.197 Y20.833
X31.201 Y20.841
X31.203 Y20.845
X31.211 Y20.856
X31.222 Y20.87
X31.237 Y20.881
X31.248 Y20.889
X31.255 Y20.894
X31.263 Y20.897
X31.271 Y20.901
X31.28 Y20.903
X31.288 Y20.905
X31.297 Y20.906
X31.315 Y20.908
X31.32
X31.807
X31.825 Y20.906
X31.834 Y20.905
X31.843 Y20.904
X31.847 Y20.903
X31.856 Y20.901
X31.864 Y20.897
X31.872 Y20.894
X31.879 Y20.889
X31.89 Y20.881
X31.905 Y20.87
X31.916 Y20.856
X31.924 Y20.845
X31.928 Y20.837
X31.93 Y20.833
X31.934 Y20.825
X31.936 Y20.817
X31.938 Y20.808
X31.94 Y20.795
X31.941 Y20.786
X31.942 Y20.772
Y20.307
X31.94 Y20.286
X31.938 Y20.272
X31.937 Y20.265
X31.934 Y20.252
X31.932 Y20.245
X31.93 Y20.239
X31.927 Y20.233
X31.924 Y20.226
X31.921 Y20.221
X31.918 Y20.215
X31.914 Y20.209
X31.909 Y20.204
X31.905 Y20.199
X31.9 Y20.194
X31.89 Y20.184
X31.88 Y20.174
X31.869 Y20.165
X31.642 Y20.005
X31.872 Y19.845
X31.888 Y19.83
X31.893 Y19.825
X31.898 Y19.82
X31.908 Y19.81
X31.912 Y19.805
X31.917 Y19.799
X31.92 Y19.794
X31.924 Y19.788
X31.927 Y19.782
X31.93 Y19.776
X31.933 Y19.769
X31.935 Y19.763
X31.937 Y19.756
X31.938 Y19.749
X31.94 Y19.743
X31.941 Y19.736
X31.943 Y19.721
X31.945 Y19.699
Y19.133
X31.943 Y19.115
X31.942 Y19.106
X31.941 Y19.097
X31.939 Y19.089
X31.938 Y19.084
X31.936 Y19.08
X31.933 Y19.072
X31.931 Y19.068
X31.926 Y19.061
X31.921 Y19.053
X31.91 Y19.039
X31.907 Y19.035
X31.893 Y19.024
X31.885 Y19.019
X31.882 Y19.017
X31.874 Y19.012
X31.866 Y19.008
X31.858 Y19.005
X31.85 Y19.003
X31.845 Y19.002
X31.837 Y19.
X31.823 Y18.999
X31.809 Y18.998
X31.317
X31.299 Y18.999
X31.29 Y19.
X31.281 Y19.002
X31.273 Y19.004
Z0.9
G0 Z2.
X32.5 Y19.625
Z0.9
G1 Z-0.1 F40.
Y20.375
X34.5
Y19.625
X32.5
Z0.9
G0 Z3.

M9
G53 Z0.
M30
